(/Applications/EAGLE-7.4.0/ulp/pcb-gcode.ulp)
(Copyright 2005 - 2012 by John Johnson)
(See readme.txt for licensing terms.)
(This file generated from the board:)
(.../line following robot PCB/line-following-car.brd)
(Current profile is .../EAGLE-7.4.0/ulp/profiles/generic.pp  )
(This file generated 15年12月16日 上午10:10)
(Settings from pcb-machine.h)
(spindle on time = 0.0000)
(  Tool Size)
(1.0000 )
(spindle speed = 35000.0000)
(tool change at 0.0000 0.0000 25.4000 )
(feed rate xy = F300.00 )
(feed rate z  = F300.00 )
(Z Axis Settings)
(  High     Up        Down     Drill)
(8.0000 	3.0000 	-0.1500 	-1.9000 )
(Settings from pcb-defaults.h)
(isolate min = 0.0000)
(isolate max = 0.1000)
(isolate step = 0.2000)
(Generated top drill, bottom outlines, bottom drill, )
(Unit of measure: mm)
(Metric Mode)
G21
(Absolute Coordinates)
G90
S35000
G00 Z8.0000 
G00 X0.0000 Y0.0000 
M03
G04 P0.000000
G00 Z3.0000 
G00 X4.0012 Y13.0486 
G01 Z-0.1500 F300.00 
G01 X3.8703 Y13.2287 F300.00 
G01 X3.7692 Y13.4271 
G01 X3.7004 Y13.6388 
G01 X3.6656 Y13.8587 
G01 X3.6656 Y14.0813 
G01 X3.7004 Y14.3012 
G01 X3.7692 Y14.5129 
G01 X3.8703 Y14.7113 
G01 X4.0012 Y14.8914 
G01 X4.1586 Y15.0488 
G01 X4.3387 Y15.1797 
G01 X4.5371 Y15.2808 
G01 X4.7488 Y15.3496 
G01 X4.9687 Y15.3844 
G01 X5.1913 Y15.3844 
G01 X5.4112 Y15.3496 
G01 X5.6229 Y15.2808 
G01 X5.8213 Y15.1797 
G01 X6.0014 Y15.0488 
G01 X6.1588 Y14.8914 
G01 X6.2897 Y14.7113 
G01 X6.3500 Y14.5930 
G01 X6.4103 Y14.7113 
G01 X6.5412 Y14.8914 
G01 X6.6986 Y15.0488 
G01 X6.8787 Y15.1797 
G01 X7.0771 Y15.2808 
G01 X7.2888 Y15.3496 
G01 X7.5087 Y15.3844 
G01 X7.7313 Y15.3844 
G01 X7.9512 Y15.3496 
G01 X8.1629 Y15.2808 
G01 X8.3613 Y15.1797 
G01 X8.5414 Y15.0488 
G01 X8.6988 Y14.8914 
G01 X8.8297 Y14.7113 
G01 X8.8900 Y14.5930 
G01 X8.9503 Y14.7113 
G01 X9.0812 Y14.8914 
G01 X9.2386 Y15.0488 
G01 X9.4187 Y15.1797 
G01 X9.6171 Y15.2808 
G01 X9.8288 Y15.3496 
G01 X10.0487 Y15.3844 
G01 X10.2713 Y15.3844 
G01 X10.4912 Y15.3496 
G01 X10.7029 Y15.2808 
G01 X10.9013 Y15.1797 
G01 X11.0814 Y15.0488 
G01 X11.2388 Y14.8914 
G01 X11.3697 Y14.7113 
G01 X11.4708 Y14.5129 
G01 X11.5396 Y14.3012 
G01 X11.5744 Y14.0813 
G01 X11.5744 Y13.8587 
G01 X11.5396 Y13.6388 
G01 X11.4708 Y13.4271 
G01 X11.3697 Y13.2287 
G01 X11.2388 Y13.0486 
G01 X11.0814 Y12.8912 
G01 X10.9013 Y12.7603 
G01 X10.7029 Y12.6592 
G01 X10.4912 Y12.5904 
G01 X10.2713 Y12.5556 
G01 X10.0487 Y12.5556 
G01 X9.8288 Y12.5904 
G01 X9.6171 Y12.6592 
G01 X9.4187 Y12.7603 
G01 X9.2386 Y12.8912 
G01 X9.0812 Y13.0486 
G01 X8.9503 Y13.2287 
G01 X8.8900 Y13.3470 
G01 X8.8297 Y13.2287 
G01 X8.6988 Y13.0486 
G01 X8.5414 Y12.8912 
G01 X8.3613 Y12.7603 
G01 X8.1629 Y12.6592 
G01 X7.9512 Y12.5904 
G01 X7.7313 Y12.5556 
G01 X7.5087 Y12.5556 
G01 X7.2888 Y12.5904 
G01 X7.0771 Y12.6592 
G01 X6.8787 Y12.7603 
G01 X6.6986 Y12.8912 
G01 X6.5412 Y13.0486 
G01 X6.4103 Y13.2287 
G01 X6.3500 Y13.3470 
G01 X6.2897 Y13.2287 
G01 X6.1588 Y13.0486 
G01 X6.0014 Y12.8912 
G01 X5.8213 Y12.7603 
G01 X5.6229 Y12.6592 
G01 X5.4112 Y12.5904 
G01 X5.1913 Y12.5556 
G01 X4.9687 Y12.5556 
G01 X4.7488 Y12.5904 
G01 X4.5371 Y12.6592 
G01 X4.3387 Y12.7603 
G01 X4.1586 Y12.8912 
G01 X4.0012 Y13.0486 
G00 Z3.0000 
G00 X4.0012 Y20.6686 
G01 Z-0.1500 F300.00 
G01 X3.8703 Y20.8487 F300.00 
G01 X3.7692 Y21.0471 
G01 X3.7004 Y21.2588 
G01 X3.6656 Y21.4787 
G01 X3.6656 Y21.7013 
G01 X3.7004 Y21.9212 
G01 X3.7692 Y22.1329 
G01 X3.8703 Y22.3313 
G01 X4.0012 Y22.5114 
G01 X4.1586 Y22.6688 
G01 X4.2500 Y22.7353 
G01 X4.2500 Y31.0739 
G01 X4.2788 Y31.2188 
G01 X4.3354 Y31.3553 
G01 X4.4174 Y31.4781 
G01 X5.4157 Y32.4764 
G01 X5.3928 Y32.6213 
G01 X5.3928 Y32.8599 
G01 X5.4301 Y33.0956 
G01 X5.5039 Y33.3225 
G01 X5.6122 Y33.5352 
G01 X5.7525 Y33.7282 
G01 X5.9212 Y33.8969 
G01 X6.1142 Y34.0372 
G01 X6.3269 Y34.1455 
G01 X6.5538 Y34.2193 
G01 X6.7895 Y34.2566 
G01 X7.0281 Y34.2566 
G01 X7.2638 Y34.2193 
G01 X7.4907 Y34.1455 
G01 X7.7034 Y34.0372 
G01 X7.8964 Y33.8969 
G01 X8.0651 Y33.7282 
G01 X8.2054 Y33.5352 
G01 X8.2500 Y33.4476 
G01 X8.2500 Y35.6893 
G01 X7.0694 Y36.8699 
G01 X7.0281 Y36.8634 
G01 X6.7895 Y36.8634 
G01 X6.5538 Y36.9007 
G01 X6.3269 Y36.9745 
G01 X6.1142 Y37.0828 
G01 X5.9212 Y37.2231 
G01 X5.7525 Y37.3918 
G01 X5.6122 Y37.5848 
G01 X5.5039 Y37.7975 
G01 X5.4301 Y38.0244 
G01 X5.3928 Y38.2601 
G01 X5.3928 Y38.4987 
G01 X5.4301 Y38.7344 
G01 X5.5039 Y38.9613 
G01 X5.6122 Y39.1740 
G01 X5.7525 Y39.3670 
G01 X5.9212 Y39.5357 
G01 X6.1142 Y39.6760 
G01 X6.3269 Y39.7843 
G01 X6.5538 Y39.8581 
G01 X6.7895 Y39.8954 
G01 X7.0281 Y39.8954 
G01 X7.2638 Y39.8581 
G01 X7.4907 Y39.7843 
G01 X7.7034 Y39.6760 
G01 X7.8964 Y39.5357 
G01 X8.0651 Y39.3670 
G01 X8.2054 Y39.1740 
G01 X8.3137 Y38.9613 
G01 X8.3875 Y38.7344 
G01 X8.4248 Y38.4987 
G01 X8.4248 Y38.2601 
G01 X8.3875 Y38.0244 
G01 X8.3137 Y37.7975 
G01 X8.2967 Y37.7640 
G01 X9.0000 Y37.0607 
G01 X10.5219 Y38.5826 
G01 X10.6447 Y38.6646 
G01 X10.7812 Y38.7212 
G01 X10.9261 Y38.7500 
G01 X11.9376 Y38.7500 
G01 X12.0063 Y38.9613 
G01 X12.1146 Y39.1740 
G01 X12.2549 Y39.3670 
G01 X12.4236 Y39.5357 
G01 X12.6166 Y39.6760 
G01 X12.8293 Y39.7843 
G01 X13.0562 Y39.8581 
G01 X13.2919 Y39.8954 
G01 X13.5305 Y39.8954 
G01 X13.7662 Y39.8581 
G01 X13.9931 Y39.7843 
G01 X14.2058 Y39.6760 
G01 X14.3988 Y39.5357 
G01 X14.5675 Y39.3670 
G01 X14.7078 Y39.1740 
G01 X14.8161 Y38.9613 
G01 X14.8899 Y38.7344 
G01 X14.9272 Y38.4987 
G01 X14.9272 Y38.2601 
G01 X14.8899 Y38.0244 
G01 X14.8543 Y37.9150 
G01 X17.2500 Y40.3107 
G01 X17.2500 Y56.5739 
G01 X17.2788 Y56.7188 
G01 X17.3354 Y56.8553 
G01 X17.4174 Y56.9781 
G01 X26.4174 Y65.9781 
G01 X26.5219 Y66.0826 
G01 X26.6447 Y66.1646 
G01 X26.7812 Y66.2212 
G01 X26.9261 Y66.2500 
G01 X29.0739 Y66.2500 
G01 X29.2188 Y66.2212 
G01 X29.3553 Y66.1646 
G01 X29.4781 Y66.0826 
G01 X35.4781 Y60.0826 
G01 X35.5826 Y59.9781 
G01 X35.6646 Y59.8553 
G01 X35.7212 Y59.7188 
G01 X35.7500 Y59.5739 
G01 X35.7500 Y57.3107 
G01 X37.0219 Y58.5826 
G01 X37.1447 Y58.6646 
G01 X37.2812 Y58.7212 
G01 X37.4261 Y58.7500 
G01 X40.1893 Y58.7500 
G01 X40.8456 Y59.4062 
G01 X40.7633 Y59.3932 
G01 X40.5167 Y59.3932 
G01 X40.2731 Y59.4318 
G01 X40.0386 Y59.5080 
G01 X39.8188 Y59.6200 
G01 X39.6193 Y59.7649 
G01 X39.4449 Y59.9393 
G01 X39.3700 Y60.0424 
G01 X39.2951 Y59.9393 
G01 X39.1207 Y59.7649 
G01 X38.9212 Y59.6200 
G01 X38.7014 Y59.5080 
G01 X38.4669 Y59.4318 
G01 X38.2233 Y59.3932 
G01 X37.9767 Y59.3932 
G01 X37.7331 Y59.4318 
G01 X37.4986 Y59.5080 
G01 X37.2788 Y59.6200 
G01 X37.0793 Y59.7649 
G01 X36.9049 Y59.9393 
G01 X36.7600 Y60.1388 
G01 X36.6480 Y60.3586 
G01 X36.5718 Y60.5931 
G01 X36.5332 Y60.8367 
G01 X36.5332 Y61.0833 
G01 X36.5718 Y61.3269 
G01 X36.6480 Y61.5614 
G01 X36.7600 Y61.7812 
G01 X36.9049 Y61.9807 
G01 X37.0793 Y62.1551 
G01 X37.1824 Y62.2300 
G01 X37.0793 Y62.3049 
G01 X36.9049 Y62.4793 
G01 X36.7600 Y62.6788 
G01 X36.6480 Y62.8986 
G01 X36.5718 Y63.1331 
G01 X36.5332 Y63.3767 
G01 X36.5332 Y63.6233 
G01 X36.5718 Y63.8669 
G01 X36.6480 Y64.1014 
G01 X36.7600 Y64.3212 
G01 X36.9049 Y64.5207 
G01 X37.0793 Y64.6951 
G01 X37.2788 Y64.8400 
G01 X37.4986 Y64.9520 
G01 X37.7331 Y65.0282 
G01 X37.9767 Y65.0668 
G01 X38.2233 Y65.0668 
G01 X38.4669 Y65.0282 
G01 X38.7014 Y64.9520 
G01 X38.9212 Y64.8400 
G01 X39.1207 Y64.6951 
G01 X39.2951 Y64.5207 
G01 X39.3700 Y64.4176 
G01 X39.4449 Y64.5207 
G01 X39.6193 Y64.6951 
G01 X39.8188 Y64.8400 
G01 X40.0386 Y64.9520 
G01 X40.2731 Y65.0282 
G01 X40.5167 Y65.0668 
G01 X40.7633 Y65.0668 
G01 X41.0069 Y65.0282 
G01 X41.2414 Y64.9520 
G01 X41.4612 Y64.8400 
G01 X41.6607 Y64.6951 
G01 X41.8351 Y64.5207 
G01 X41.9800 Y64.3212 
G01 X42.0920 Y64.1014 
G01 X42.1682 Y63.8669 
G01 X42.2068 Y63.6233 
G01 X42.2068 Y63.3767 
G01 X42.1682 Y63.1331 
G01 X42.0920 Y62.8986 
G01 X41.9800 Y62.6788 
G01 X41.8351 Y62.4793 
G01 X41.6607 Y62.3049 
G01 X41.5576 Y62.2300 
G01 X41.6607 Y62.1551 
G01 X41.8351 Y61.9807 
G01 X41.9800 Y61.7812 
G01 X42.0920 Y61.5614 
G01 X42.1682 Y61.3269 
G01 X42.2068 Y61.0833 
G01 X42.2068 Y60.8367 
G01 X42.1938 Y60.7544 
G01 X42.2500 Y60.8107 
G01 X42.2500 Y64.0739 
G01 X42.2788 Y64.2188 
G01 X42.3354 Y64.3553 
G01 X42.4174 Y64.4781 
G01 X58.0219 Y80.0826 
G01 X58.1447 Y80.1646 
G01 X58.2812 Y80.2212 
G01 X58.4261 Y80.2500 
G01 X76.6881 Y80.2500 
G01 X77.3961 Y80.9580 
G01 X78.6039 Y80.9580 
G01 X79.4580 Y80.1039 
G01 X79.4580 Y78.8961 
G01 X78.6039 Y78.0420 
G01 X78.4820 Y78.0420 
G01 X78.5647 Y78.0077 
G01 X78.7930 Y77.8759 
G01 X79.0022 Y77.7154 
G01 X79.1886 Y77.5290 
G01 X79.3491 Y77.3198 
G01 X79.4809 Y77.0915 
G01 X79.5818 Y76.8479 
G01 X79.6501 Y76.5932 
G01 X79.6845 Y76.3318 
G01 X79.6845 Y76.0682 
G01 X79.6501 Y75.8068 
G01 X79.6149 Y75.6756 
G01 X81.0219 Y77.0826 
G01 X81.1447 Y77.1646 
G01 X81.2812 Y77.2212 
G01 X81.4261 Y77.2500 
G01 X82.4693 Y77.2500 
G01 X82.5092 Y77.3729 
G01 X82.6103 Y77.5713 
G01 X82.7412 Y77.7514 
G01 X82.8986 Y77.9088 
G01 X83.0787 Y78.0397 
G01 X83.1970 Y78.1000 
G01 X83.0787 Y78.1603 
G01 X82.8986 Y78.2912 
G01 X82.7412 Y78.4486 
G01 X82.6103 Y78.6287 
G01 X82.5092 Y78.8271 
G01 X82.4404 Y79.0388 
G01 X82.4056 Y79.2587 
G01 X82.4056 Y79.4813 
G01 X82.4404 Y79.7012 
G01 X82.5092 Y79.9129 
G01 X82.6103 Y80.1113 
G01 X82.7412 Y80.2914 
G01 X82.8986 Y80.4488 
G01 X83.0787 Y80.5797 
G01 X83.2771 Y80.6808 
G01 X83.4888 Y80.7496 
G01 X83.7087 Y80.7844 
G01 X83.9313 Y80.7844 
G01 X84.1512 Y80.7496 
G01 X84.3629 Y80.6808 
G01 X84.5613 Y80.5797 
G01 X84.7414 Y80.4488 
G01 X84.8988 Y80.2914 
G01 X85.0297 Y80.1113 
G01 X85.1308 Y79.9129 
G01 X85.1996 Y79.7012 
G01 X85.2344 Y79.4813 
G01 X85.2344 Y79.2587 
G01 X85.1996 Y79.0388 
G01 X85.1308 Y78.8271 
G01 X85.0297 Y78.6287 
G01 X84.8988 Y78.4486 
G01 X84.7414 Y78.2912 
G01 X84.5613 Y78.1603 
G01 X84.4430 Y78.1000 
G01 X84.5613 Y78.0397 
G01 X84.7414 Y77.9088 
G01 X84.8988 Y77.7514 
G01 X85.0297 Y77.5713 
G01 X85.1308 Y77.3729 
G01 X85.1996 Y77.1612 
G01 X85.2344 Y76.9413 
G01 X85.2344 Y76.7187 
G01 X85.1996 Y76.4988 
G01 X85.1308 Y76.2871 
G01 X85.0297 Y76.0887 
G01 X84.8988 Y75.9086 
G01 X84.7414 Y75.7512 
G01 X84.5613 Y75.6203 
G01 X84.3629 Y75.5192 
G01 X84.1512 Y75.4504 
G01 X83.9313 Y75.4156 
G01 X83.7087 Y75.4156 
G01 X83.4888 Y75.4504 
G01 X83.2771 Y75.5192 
G01 X83.0787 Y75.6203 
G01 X82.9002 Y75.7500 
G01 X81.8107 Y75.7500 
G01 X77.4781 Y71.4174 
G01 X77.3553 Y71.3354 
G01 X77.2188 Y71.2788 
G01 X77.0739 Y71.2500 
G01 X76.1482 Y71.2500 
G01 X76.2772 Y71.2296 
G01 X76.4889 Y71.1608 
G01 X76.6873 Y71.0597 
G01 X76.8674 Y70.9288 
G01 X77.0248 Y70.7714 
G01 X77.1557 Y70.5913 
G01 X77.2568 Y70.3929 
G01 X77.3256 Y70.1812 
G01 X77.3604 Y69.9613 
G01 X77.3604 Y69.7387 
G01 X77.3256 Y69.5188 
G01 X77.2568 Y69.3071 
G01 X77.1557 Y69.1087 
G01 X77.0248 Y68.9286 
G01 X76.8674 Y68.7712 
G01 X76.6873 Y68.6403 
G01 X76.4889 Y68.5392 
G01 X76.2772 Y68.4704 
G01 X76.0573 Y68.4356 
G01 X75.8347 Y68.4356 
G01 X75.6148 Y68.4704 
G01 X75.4031 Y68.5392 
G01 X75.2047 Y68.6403 
G01 X75.0246 Y68.7712 
G01 X74.9300 Y68.8657 
G01 X74.8354 Y68.7712 
G01 X74.6553 Y68.6403 
G01 X74.4569 Y68.5392 
G01 X74.2452 Y68.4704 
G01 X74.0253 Y68.4356 
G01 X73.8027 Y68.4356 
G01 X73.5828 Y68.4704 
G01 X73.3711 Y68.5392 
G01 X73.1727 Y68.6403 
G01 X73.0217 Y68.7500 
G01 X60.8107 Y68.7500 
G01 X59.6166 Y67.5560 
G01 X59.8093 Y67.5560 
G01 X60.0450 Y67.5187 
G01 X60.2719 Y67.4449 
G01 X60.4846 Y67.3366 
G01 X60.6776 Y67.1963 
G01 X60.8463 Y67.0276 
G01 X60.9600 Y66.8712 
G01 X61.0737 Y67.0276 
G01 X61.2424 Y67.1963 
G01 X61.4354 Y67.3366 
G01 X61.6481 Y67.4449 
G01 X61.8750 Y67.5187 
G01 X62.1107 Y67.5560 
G01 X62.3493 Y67.5560 
G01 X62.5850 Y67.5187 
G01 X62.8119 Y67.4449 
G01 X63.0246 Y67.3366 
G01 X63.2176 Y67.1963 
G01 X63.3863 Y67.0276 
G01 X63.5000 Y66.8712 
G01 X63.6137 Y67.0276 
G01 X63.7824 Y67.1963 
G01 X63.9754 Y67.3366 
G01 X64.1881 Y67.4449 
G01 X64.4150 Y67.5187 
G01 X64.6507 Y67.5560 
G01 X64.8893 Y67.5560 
G01 X65.1250 Y67.5187 
G01 X65.3519 Y67.4449 
G01 X65.5646 Y67.3366 
G01 X65.7576 Y67.1963 
G01 X65.9263 Y67.0276 
G01 X66.0666 Y66.8346 
G01 X66.1749 Y66.6219 
G01 X66.2487 Y66.3950 
G01 X66.2860 Y66.1593 
G01 X66.2860 Y65.9207 
G01 X66.2487 Y65.6850 
G01 X66.1749 Y65.4581 
G01 X66.0666 Y65.2454 
G01 X65.9263 Y65.0524 
G01 X65.7576 Y64.8837 
G01 X65.6012 Y64.7700 
G01 X65.7576 Y64.6563 
G01 X65.9263 Y64.4876 
G01 X66.0666 Y64.2946 
G01 X66.1749 Y64.0819 
G01 X66.2487 Y63.8550 
G01 X66.2860 Y63.6193 
G01 X66.2860 Y63.3807 
G01 X66.2487 Y63.1450 
G01 X66.1749 Y62.9181 
G01 X66.0666 Y62.7054 
G01 X65.9263 Y62.5124 
G01 X65.7576 Y62.3437 
G01 X65.6012 Y62.2300 
G01 X65.7576 Y62.1163 
G01 X65.9263 Y61.9476 
G01 X66.0666 Y61.7546 
G01 X66.1749 Y61.5419 
G01 X66.2487 Y61.3150 
G01 X66.2860 Y61.0793 
G01 X66.2860 Y60.8466 
G01 X70.5219 Y65.0826 
G01 X70.6447 Y65.1646 
G01 X70.7812 Y65.2212 
G01 X70.9261 Y65.2500 
G01 X75.5739 Y65.2500 
G01 X75.7188 Y65.2212 
G01 X75.8553 Y65.1646 
G01 X75.9781 Y65.0826 
G01 X76.0826 Y64.9781 
G01 X77.3107 Y63.7500 
G01 X80.2997 Y63.7500 
G01 X80.2012 Y63.8486 
G01 X80.0703 Y64.0287 
G01 X79.9692 Y64.2271 
G01 X79.9004 Y64.4388 
G01 X79.8656 Y64.6587 
G01 X79.8656 Y64.8813 
G01 X79.9004 Y65.1012 
G01 X79.9692 Y65.3129 
G01 X80.0703 Y65.5113 
G01 X80.2012 Y65.6914 
G01 X80.3586 Y65.8488 
G01 X80.5387 Y65.9797 
G01 X80.7371 Y66.0808 
G01 X80.9488 Y66.1496 
G01 X81.1687 Y66.1844 
G01 X81.3913 Y66.1844 
G01 X81.6112 Y66.1496 
G01 X81.8229 Y66.0808 
G01 X82.0213 Y65.9797 
G01 X82.2014 Y65.8488 
G01 X82.3588 Y65.6914 
G01 X82.4897 Y65.5113 
G01 X82.5908 Y65.3129 
G01 X82.6596 Y65.1012 
G01 X82.6944 Y64.8813 
G01 X82.6944 Y64.6852 
G01 X82.7812 Y64.7212 
G01 X82.9261 Y64.7500 
G01 X86.3585 Y64.7500 
G01 X86.4203 Y64.8713 
G01 X86.5512 Y65.0514 
G01 X86.7086 Y65.2088 
G01 X86.8887 Y65.3397 
G01 X87.0070 Y65.4000 
G01 X86.8887 Y65.4603 
G01 X86.7086 Y65.5912 
G01 X86.5512 Y65.7486 
G01 X86.4203 Y65.9287 
G01 X86.3192 Y66.1271 
G01 X86.2504 Y66.3388 
G01 X86.2156 Y66.5587 
G01 X86.2156 Y66.7813 
G01 X86.2504 Y67.0012 
G01 X86.3192 Y67.2129 
G01 X86.4203 Y67.4113 
G01 X86.5512 Y67.5914 
G01 X86.7086 Y67.7488 
G01 X86.8887 Y67.8797 
G01 X87.0871 Y67.9808 
G01 X87.2988 Y68.0496 
G01 X87.5187 Y68.0844 
G01 X87.7413 Y68.0844 
G01 X87.9612 Y68.0496 
G01 X88.1729 Y67.9808 
G01 X88.3713 Y67.8797 
G01 X88.5498 Y67.7500 
G01 X90.2500 Y67.7500 
G01 X90.2500 Y76.4078 
G01 X90.2108 Y76.2871 
G01 X90.1097 Y76.0887 
G01 X89.9788 Y75.9086 
G01 X89.8214 Y75.7512 
G01 X89.6413 Y75.6203 
G01 X89.4429 Y75.5192 
G01 X89.2312 Y75.4504 
G01 X89.0113 Y75.4156 
G01 X88.7887 Y75.4156 
G01 X88.5688 Y75.4504 
G01 X88.3571 Y75.5192 
G01 X88.1734 Y75.6128 
G01 X82.6708 Y70.1102 
G01 X82.6944 Y69.9613 
G01 X82.6944 Y69.7387 
G01 X82.6596 Y69.5188 
G01 X82.5908 Y69.3071 
G01 X82.4897 Y69.1087 
G01 X82.3588 Y68.9286 
G01 X82.2014 Y68.7712 
G01 X82.0213 Y68.6403 
G01 X81.8229 Y68.5392 
G01 X81.6112 Y68.4704 
G01 X81.3913 Y68.4356 
G01 X81.1687 Y68.4356 
G01 X80.9488 Y68.4704 
G01 X80.7371 Y68.5392 
G01 X80.5387 Y68.6403 
G01 X80.3586 Y68.7712 
G01 X80.2012 Y68.9286 
G01 X80.0703 Y69.1087 
G01 X79.9692 Y69.3071 
G01 X79.9004 Y69.5188 
G01 X79.8656 Y69.7387 
G01 X79.8656 Y69.9613 
G01 X79.9004 Y70.1812 
G01 X79.9692 Y70.3929 
G01 X80.0703 Y70.5913 
G01 X80.2012 Y70.7714 
G01 X80.3586 Y70.9288 
G01 X80.5387 Y71.0597 
G01 X80.7371 Y71.1608 
G01 X80.9488 Y71.2296 
G01 X81.1687 Y71.2644 
G01 X81.3913 Y71.2644 
G01 X81.6112 Y71.2296 
G01 X81.6548 Y71.2154 
G01 X87.5054 Y77.0660 
G01 X87.5204 Y77.1612 
G01 X87.5892 Y77.3729 
G01 X87.6903 Y77.5713 
G01 X87.8212 Y77.7514 
G01 X87.9786 Y77.9088 
G01 X88.1587 Y78.0397 
G01 X88.2770 Y78.1000 
G01 X88.1587 Y78.1603 
G01 X87.9786 Y78.2912 
G01 X87.8212 Y78.4486 
G01 X87.6903 Y78.6287 
G01 X87.5892 Y78.8271 
G01 X87.5204 Y79.0388 
G01 X87.4856 Y79.2587 
G01 X87.4856 Y79.4813 
G01 X87.5204 Y79.7012 
G01 X87.5892 Y79.9129 
G01 X87.6903 Y80.1113 
G01 X87.8212 Y80.2914 
G01 X87.9786 Y80.4488 
G01 X88.1587 Y80.5797 
G01 X88.3571 Y80.6808 
G01 X88.5688 Y80.7496 
G01 X88.7887 Y80.7844 
G01 X89.0113 Y80.7844 
G01 X89.2312 Y80.7496 
G01 X89.4429 Y80.6808 
G01 X89.6413 Y80.5797 
G01 X89.8214 Y80.4488 
G01 X89.9788 Y80.2914 
G01 X90.1097 Y80.1113 
G01 X90.2108 Y79.9129 
G01 X90.2796 Y79.7012 
G01 X90.3144 Y79.4813 
G01 X90.3144 Y79.2587 
G01 X90.3127 Y79.2480 
G01 X91.4781 Y78.0826 
G01 X91.5826 Y77.9781 
G01 X91.6646 Y77.8553 
G01 X91.7212 Y77.7188 
G01 X91.7500 Y77.5739 
G01 X91.7500 Y67.7500 
G01 X91.7902 Y67.7500 
G01 X91.9687 Y67.8797 
G01 X92.1671 Y67.9808 
G01 X92.3788 Y68.0496 
G01 X92.5987 Y68.0844 
G01 X92.8213 Y68.0844 
G01 X93.0412 Y68.0496 
G01 X93.2529 Y67.9808 
G01 X93.4513 Y67.8797 
G01 X93.6314 Y67.7488 
G01 X93.7888 Y67.5914 
G01 X93.9197 Y67.4113 
G01 X94.0208 Y67.2129 
G01 X94.0896 Y67.0012 
G01 X94.1244 Y66.7813 
G01 X94.1244 Y66.5587 
G01 X94.0896 Y66.3388 
G01 X94.0208 Y66.1271 
G01 X93.9197 Y65.9287 
G01 X93.7888 Y65.7486 
G01 X93.6314 Y65.5912 
G01 X93.4513 Y65.4603 
G01 X93.3330 Y65.4000 
G01 X93.4513 Y65.3397 
G01 X93.6314 Y65.2088 
G01 X93.7888 Y65.0514 
G01 X93.9197 Y64.8713 
G01 X94.0208 Y64.6729 
G01 X94.0896 Y64.4612 
G01 X94.1244 Y64.2413 
G01 X94.1244 Y64.0187 
G01 X94.0896 Y63.7988 
G01 X94.0208 Y63.5871 
G01 X93.9197 Y63.3887 
G01 X93.7888 Y63.2086 
G01 X93.6314 Y63.0512 
G01 X93.4513 Y62.9203 
G01 X93.2529 Y62.8192 
G01 X93.0412 Y62.7504 
G01 X92.8213 Y62.7156 
G01 X92.5987 Y62.7156 
G01 X92.3788 Y62.7504 
G01 X92.1671 Y62.8192 
G01 X91.9687 Y62.9203 
G01 X91.7886 Y63.0512 
G01 X91.6312 Y63.2086 
G01 X91.5003 Y63.3887 
G01 X91.3992 Y63.5871 
G01 X91.3304 Y63.7988 
G01 X91.2956 Y64.0187 
G01 X91.2956 Y64.2413 
G01 X91.3304 Y64.4612 
G01 X91.3992 Y64.6729 
G01 X91.5003 Y64.8713 
G01 X91.6312 Y65.0514 
G01 X91.7886 Y65.2088 
G01 X91.9687 Y65.3397 
G01 X92.0870 Y65.4000 
G01 X91.9687 Y65.4603 
G01 X91.7886 Y65.5912 
G01 X91.6312 Y65.7486 
G01 X91.5003 Y65.9287 
G01 X91.3992 Y66.1271 
G01 X91.3593 Y66.2500 
G01 X88.9807 Y66.2500 
G01 X88.9408 Y66.1271 
G01 X88.8397 Y65.9287 
G01 X88.7088 Y65.7486 
G01 X88.5514 Y65.5912 
G01 X88.3713 Y65.4603 
G01 X88.2530 Y65.4000 
G01 X88.3713 Y65.3397 
G01 X88.5514 Y65.2088 
G01 X88.7088 Y65.0514 
G01 X88.8397 Y64.8713 
G01 X88.9408 Y64.6729 
G01 X89.0096 Y64.4612 
G01 X89.0444 Y64.2413 
G01 X89.0444 Y64.0187 
G01 X89.0096 Y63.7988 
G01 X88.9408 Y63.5871 
G01 X88.8397 Y63.3887 
G01 X88.7088 Y63.2086 
G01 X88.5514 Y63.0512 
G01 X88.3713 Y62.9203 
G01 X88.1729 Y62.8192 
G01 X87.9612 Y62.7504 
G01 X87.7413 Y62.7156 
G01 X87.5187 Y62.7156 
G01 X87.2988 Y62.7504 
G01 X87.0871 Y62.8192 
G01 X86.8887 Y62.9203 
G01 X86.7086 Y63.0512 
G01 X86.5512 Y63.2086 
G01 X86.5211 Y63.2500 
G01 X83.3107 Y63.2500 
G01 X82.5826 Y62.5219 
G01 X82.4781 Y62.4174 
G01 X82.3553 Y62.3354 
G01 X82.2188 Y62.2788 
G01 X82.0739 Y62.2500 
G01 X77.3106 Y62.2500 
G01 X87.3107 Y52.2500 
G01 X89.0175 Y52.2500 
G01 X89.0912 Y52.3514 
G01 X89.2486 Y52.5088 
G01 X89.4287 Y52.6397 
G01 X89.5470 Y52.7000 
G01 X89.4287 Y52.7603 
G01 X89.2486 Y52.8912 
G01 X89.0912 Y53.0486 
G01 X88.9603 Y53.2287 
G01 X88.8592 Y53.4271 
G01 X88.7904 Y53.6388 
G01 X88.7556 Y53.8587 
G01 X88.7556 Y54.0813 
G01 X88.7904 Y54.3012 
G01 X88.8592 Y54.5129 
G01 X88.9603 Y54.7113 
G01 X89.0912 Y54.8914 
G01 X89.2486 Y55.0488 
G01 X89.4287 Y55.1797 
G01 X89.5667 Y55.2500 
G01 X88.8119 Y55.2500 
G01 X88.1039 Y54.5420 
G01 X86.8961 Y54.5420 
G01 X86.0420 Y55.3961 
G01 X86.0420 Y56.6039 
G01 X86.8961 Y57.4580 
G01 X88.1039 Y57.4580 
G01 X88.8119 Y56.7500 
G01 X96.0739 Y56.7500 
G01 X96.2188 Y56.7212 
G01 X96.3553 Y56.6646 
G01 X96.4781 Y56.5826 
G01 X98.4781 Y54.5826 
G01 X98.5826 Y54.4781 
G01 X98.6646 Y54.3553 
G01 X98.7212 Y54.2188 
G01 X98.7500 Y54.0739 
G01 X98.7500 Y42.8107 
G01 X98.9781 Y42.5826 
G01 X99.0826 Y42.4781 
G01 X99.1646 Y42.3553 
G01 X99.2212 Y42.2188 
G01 X99.2500 Y42.0739 
G01 X99.2500 Y28.4261 
G01 X99.2212 Y28.2812 
G01 X99.1646 Y28.1447 
G01 X99.0826 Y28.0219 
G01 X97.7500 Y26.6893 
G01 X97.7500 Y24.4261 
G01 X97.7212 Y24.2812 
G01 X97.6646 Y24.1447 
G01 X97.5826 Y24.0219 
G01 X97.4580 Y23.8973 
G01 X97.4580 Y22.8961 
G01 X96.6039 Y22.0420 
G01 X95.3961 Y22.0420 
G01 X95.2216 Y22.2164 
G01 X95.2500 Y22.0739 
G01 X95.2500 Y14.9261 
G01 X95.2212 Y14.7812 
G01 X95.1646 Y14.6447 
G01 X95.0826 Y14.5219 
G01 X94.9781 Y14.4174 
G01 X94.1077 Y13.5470 
G01 X94.1244 Y13.4413 
G01 X94.1244 Y13.2187 
G01 X94.0896 Y12.9988 
G01 X94.0208 Y12.7871 
G01 X93.9197 Y12.5887 
G01 X93.7888 Y12.4086 
G01 X93.6314 Y12.2512 
G01 X93.4513 Y12.1203 
G01 X93.2529 Y12.0192 
G01 X93.0412 Y11.9504 
G01 X92.8213 Y11.9156 
G01 X92.5987 Y11.9156 
G01 X92.3788 Y11.9504 
G01 X92.1671 Y12.0192 
G01 X91.9687 Y12.1203 
G01 X91.7886 Y12.2512 
G01 X91.6312 Y12.4086 
G01 X91.5003 Y12.5887 
G01 X91.3992 Y12.7871 
G01 X91.3304 Y12.9988 
G01 X91.2956 Y13.2187 
G01 X91.2956 Y13.4413 
G01 X91.3304 Y13.6612 
G01 X91.3992 Y13.8729 
G01 X91.5003 Y14.0713 
G01 X91.6312 Y14.2514 
G01 X91.7886 Y14.4088 
G01 X91.9687 Y14.5397 
G01 X92.0870 Y14.6000 
G01 X91.9687 Y14.6603 
G01 X91.7886 Y14.7912 
G01 X91.6312 Y14.9486 
G01 X91.5003 Y15.1287 
G01 X91.3992 Y15.3271 
G01 X91.3304 Y15.5388 
G01 X91.2956 Y15.7587 
G01 X91.2956 Y15.9813 
G01 X91.3304 Y16.2012 
G01 X91.3992 Y16.4129 
G01 X91.5003 Y16.6113 
G01 X91.6312 Y16.7914 
G01 X91.7886 Y16.9488 
G01 X91.9687 Y17.0797 
G01 X92.1671 Y17.1808 
G01 X92.3788 Y17.2496 
G01 X92.5987 Y17.2844 
G01 X92.8213 Y17.2844 
G01 X93.0412 Y17.2496 
G01 X93.2529 Y17.1808 
G01 X93.4513 Y17.0797 
G01 X93.6314 Y16.9488 
G01 X93.7500 Y16.8303 
G01 X93.7500 Y21.6893 
G01 X93.5219 Y21.9174 
G01 X93.4174 Y22.0219 
G01 X93.3354 Y22.1447 
G01 X93.2788 Y22.2812 
G01 X93.2500 Y22.4261 
G01 X93.2500 Y25.0739 
G01 X93.2788 Y25.2188 
G01 X93.3354 Y25.3553 
G01 X93.4174 Y25.4781 
G01 X93.8387 Y25.8993 
G01 X93.8356 Y25.9187 
G01 X93.8356 Y26.1413 
G01 X93.8704 Y26.3612 
G01 X93.9392 Y26.5729 
G01 X94.0403 Y26.7713 
G01 X94.1712 Y26.9514 
G01 X94.3286 Y27.1088 
G01 X94.5087 Y27.2397 
G01 X94.6270 Y27.3000 
G01 X94.5087 Y27.3603 
G01 X94.3286 Y27.4912 
G01 X94.1712 Y27.6486 
G01 X94.0403 Y27.8287 
G01 X93.9392 Y28.0271 
G01 X93.8704 Y28.2388 
G01 X93.8607 Y28.3001 
G01 X91.5844 Y26.0237 
G01 X91.5844 Y25.9187 
G01 X91.5496 Y25.6988 
G01 X91.4808 Y25.4871 
G01 X91.3797 Y25.2887 
G01 X91.2488 Y25.1086 
G01 X91.0914 Y24.9512 
G01 X90.9113 Y24.8203 
G01 X90.7129 Y24.7192 
G01 X90.5012 Y24.6504 
G01 X90.2813 Y24.6156 
G01 X90.0587 Y24.6156 
G01 X89.8388 Y24.6504 
G01 X89.6271 Y24.7192 
G01 X89.4287 Y24.8203 
G01 X89.2486 Y24.9512 
G01 X89.0912 Y25.1086 
G01 X88.9603 Y25.2887 
G01 X88.8592 Y25.4871 
G01 X88.7904 Y25.6988 
G01 X88.7556 Y25.9187 
G01 X88.7556 Y26.1413 
G01 X88.7657 Y26.2050 
G01 X88.7500 Y26.1893 
G01 X88.7500 Y16.7348 
G01 X88.8397 Y16.6113 
G01 X88.9408 Y16.4129 
G01 X89.0096 Y16.2012 
G01 X89.0444 Y15.9813 
G01 X89.0444 Y15.7587 
G01 X89.0096 Y15.5388 
G01 X88.9408 Y15.3271 
G01 X88.8397 Y15.1287 
G01 X88.7088 Y14.9486 
G01 X88.5514 Y14.7912 
G01 X88.3713 Y14.6603 
G01 X88.2530 Y14.6000 
G01 X88.3713 Y14.5397 
G01 X88.5514 Y14.4088 
G01 X88.7088 Y14.2514 
G01 X88.8397 Y14.0713 
G01 X88.9408 Y13.8729 
G01 X89.0096 Y13.6612 
G01 X89.0444 Y13.4413 
G01 X89.0444 Y13.2187 
G01 X89.0096 Y12.9988 
G01 X88.9408 Y12.7871 
G01 X88.8397 Y12.5887 
G01 X88.7088 Y12.4086 
G01 X88.5514 Y12.2512 
G01 X88.3713 Y12.1203 
G01 X88.1729 Y12.0192 
G01 X87.9612 Y11.9504 
G01 X87.7413 Y11.9156 
G01 X87.5187 Y11.9156 
G01 X87.2988 Y11.9504 
G01 X87.0871 Y12.0192 
G01 X86.8887 Y12.1203 
G01 X86.7086 Y12.2512 
G01 X86.5512 Y12.4086 
G01 X86.4203 Y12.5887 
G01 X86.3192 Y12.7871 
G01 X86.2504 Y12.9988 
G01 X86.2156 Y13.2187 
G01 X86.2156 Y13.4413 
G01 X86.2504 Y13.6612 
G01 X86.3192 Y13.8729 
G01 X86.4203 Y14.0713 
G01 X86.5512 Y14.2514 
G01 X86.7086 Y14.4088 
G01 X86.8887 Y14.5397 
G01 X87.0070 Y14.6000 
G01 X86.8887 Y14.6603 
G01 X86.7086 Y14.7912 
G01 X86.5512 Y14.9486 
G01 X86.4203 Y15.1287 
G01 X86.3192 Y15.3271 
G01 X86.2504 Y15.5388 
G01 X86.2156 Y15.7587 
G01 X86.2156 Y15.9813 
G01 X86.2504 Y16.2012 
G01 X86.3192 Y16.4129 
G01 X86.4203 Y16.6113 
G01 X86.5512 Y16.7914 
G01 X86.7086 Y16.9488 
G01 X86.8887 Y17.0797 
G01 X87.0871 Y17.1808 
G01 X87.2500 Y17.2337 
G01 X87.2500 Y26.5739 
G01 X87.2788 Y26.7188 
G01 X87.3354 Y26.8553 
G01 X87.4174 Y26.9781 
G01 X88.7751 Y28.3357 
G01 X88.7556 Y28.4587 
G01 X88.7556 Y28.6813 
G01 X88.7582 Y28.6975 
G01 X79.7500 Y19.6893 
G01 X79.7500 Y8.4261 
G01 X79.7212 Y8.2812 
G01 X79.6646 Y8.1447 
G01 X79.5826 Y8.0219 
G01 X77.8107 Y6.2500 
G01 X78.6027 Y5.4580 
G01 X79.6039 Y5.4580 
G01 X80.4580 Y4.6039 
G01 X80.4580 Y3.3961 
G01 X79.6039 Y2.5420 
G01 X78.5186 Y2.5420 
G01 X79.3107 Y1.7500 
G01 X82.9552 Y1.7500 
G01 X83.0787 Y1.8397 
G01 X83.1970 Y1.9000 
G01 X83.0787 Y1.9603 
G01 X82.8986 Y2.0912 
G01 X82.7412 Y2.2486 
G01 X82.6103 Y2.4287 
G01 X82.5092 Y2.6271 
G01 X82.4404 Y2.8388 
G01 X82.4056 Y3.0587 
G01 X82.4056 Y3.2813 
G01 X82.4404 Y3.5012 
G01 X82.5092 Y3.7129 
G01 X82.6103 Y3.9113 
G01 X82.7412 Y4.0914 
G01 X82.8986 Y4.2488 
G01 X83.0787 Y4.3797 
G01 X83.2771 Y4.4808 
G01 X83.4888 Y4.5496 
G01 X83.7087 Y4.5844 
G01 X83.9313 Y4.5844 
G01 X84.1512 Y4.5496 
G01 X84.3629 Y4.4808 
G01 X84.5613 Y4.3797 
G01 X84.7414 Y4.2488 
G01 X84.8988 Y4.0914 
G01 X85.0297 Y3.9113 
G01 X85.1308 Y3.7129 
G01 X85.1996 Y3.5012 
G01 X85.2344 Y3.2813 
G01 X85.2344 Y3.0587 
G01 X85.1996 Y2.8388 
G01 X85.1308 Y2.6271 
G01 X85.0297 Y2.4287 
G01 X84.8988 Y2.2486 
G01 X84.7414 Y2.0912 
G01 X84.5613 Y1.9603 
G01 X84.4430 Y1.9000 
G01 X84.5613 Y1.8397 
G01 X84.7414 Y1.7088 
G01 X84.8988 Y1.5514 
G01 X85.0297 Y1.3713 
G01 X85.1308 Y1.1729 
G01 X85.1996 Y0.9612 
G01 X85.2344 Y0.7413 
G01 X85.2344 Y0.5187 
G01 X85.1996 Y0.2988 
G01 X85.1308 Y0.0871 
G01 X85.0297 Y-0.1113 
G01 X84.8988 Y-0.2914 
G01 X84.7414 Y-0.4488 
G01 X84.5613 Y-0.5797 
G01 X84.3629 Y-0.6808 
G01 X84.1512 Y-0.7496 
G01 X83.9313 Y-0.7844 
G01 X83.7087 Y-0.7844 
G01 X83.4888 Y-0.7496 
G01 X83.2771 Y-0.6808 
G01 X83.0787 Y-0.5797 
G01 X82.8986 Y-0.4488 
G01 X82.7412 Y-0.2914 
G01 X82.6103 Y-0.1113 
G01 X82.5092 Y0.0871 
G01 X82.4563 Y0.2500 
G01 X78.9261 Y0.2500 
G01 X78.7812 Y0.2788 
G01 X78.6447 Y0.3354 
G01 X78.5219 Y0.4174 
G01 X78.4174 Y0.5219 
G01 X77.4580 Y1.4813 
G01 X77.4580 Y0.3961 
G01 X76.6039 Y-0.4580 
G01 X75.3961 Y-0.4580 
G01 X74.6881 Y0.2500 
G01 X57.9261 Y0.2500 
G01 X57.7812 Y0.2788 
G01 X57.6447 Y0.3354 
G01 X57.5219 Y0.4174 
G01 X57.4174 Y0.5219 
G01 X52.6893 Y5.2500 
G01 X41.9261 Y5.2500 
G01 X41.7812 Y5.2788 
G01 X41.6447 Y5.3354 
G01 X41.5219 Y5.4174 
G01 X41.4174 Y5.5219 
G01 X35.4174 Y11.5219 
G01 X35.3354 Y11.6447 
G01 X35.2788 Y11.7812 
G01 X35.2500 Y11.9261 
G01 X35.2500 Y13.6893 
G01 X28.2500 Y20.6893 
G01 X28.2500 Y16.7772 
G01 X28.3069 Y16.7682 
G01 X28.5414 Y16.6920 
G01 X28.7612 Y16.5800 
G01 X28.9607 Y16.4351 
G01 X29.1351 Y16.2607 
G01 X29.2800 Y16.0612 
G01 X29.3920 Y15.8414 
G01 X29.4682 Y15.6069 
G01 X29.5068 Y15.3633 
G01 X29.5068 Y15.1167 
G01 X29.4682 Y14.8731 
G01 X29.3920 Y14.6386 
G01 X29.2800 Y14.4188 
G01 X29.1351 Y14.2193 
G01 X28.9607 Y14.0449 
G01 X28.8576 Y13.9700 
G01 X28.9607 Y13.8951 
G01 X29.1351 Y13.7207 
G01 X29.2800 Y13.5212 
G01 X29.3920 Y13.3014 
G01 X29.4682 Y13.0669 
G01 X29.5068 Y12.8233 
G01 X29.5068 Y12.5767 
G01 X29.4682 Y12.3331 
G01 X29.3920 Y12.0986 
G01 X29.2800 Y11.8788 
G01 X29.1351 Y11.6793 
G01 X28.9607 Y11.5049 
G01 X28.7612 Y11.3600 
G01 X28.5414 Y11.2480 
G01 X28.3069 Y11.1718 
G01 X28.0633 Y11.1332 
G01 X27.8167 Y11.1332 
G01 X27.5731 Y11.1718 
G01 X27.3386 Y11.2480 
G01 X27.2858 Y11.2749 
G01 X31.1027 Y7.4580 
G01 X32.1039 Y7.4580 
G01 X32.9580 Y6.6039 
G01 X32.9580 Y5.3961 
G01 X32.1039 Y4.5420 
G01 X30.8961 Y4.5420 
G01 X30.0420 Y5.3961 
G01 X30.0420 Y6.3973 
G01 X21.1893 Y15.2500 
G01 X14.4261 Y15.2500 
G01 X14.2812 Y15.2788 
G01 X14.1447 Y15.3354 
G01 X14.0219 Y15.4174 
G01 X11.5219 Y17.9174 
G01 X11.4174 Y18.0219 
G01 X11.3354 Y18.1447 
G01 X11.2788 Y18.2812 
G01 X11.2500 Y18.4261 
G01 X11.2500 Y20.6839 
G01 X11.2388 Y20.6686 
G01 X11.0814 Y20.5112 
G01 X10.9013 Y20.3803 
G01 X10.7029 Y20.2792 
G01 X10.4912 Y20.2104 
G01 X10.2713 Y20.1756 
G01 X10.0487 Y20.1756 
G01 X9.8288 Y20.2104 
G01 X9.6171 Y20.2792 
G01 X9.4187 Y20.3803 
G01 X9.2386 Y20.5112 
G01 X9.0812 Y20.6686 
G01 X8.9503 Y20.8487 
G01 X8.8900 Y20.9670 
G01 X8.8297 Y20.8487 
G01 X8.6988 Y20.6686 
G01 X8.5414 Y20.5112 
G01 X8.3613 Y20.3803 
G01 X8.1629 Y20.2792 
G01 X7.9512 Y20.2104 
G01 X7.7313 Y20.1756 
G01 X7.5087 Y20.1756 
G01 X7.2888 Y20.2104 
G01 X7.0771 Y20.2792 
G01 X6.8787 Y20.3803 
G01 X6.6986 Y20.5112 
G01 X6.5412 Y20.6686 
G01 X6.4103 Y20.8487 
G01 X6.3500 Y20.9670 
G01 X6.2897 Y20.8487 
G01 X6.1588 Y20.6686 
G01 X6.0014 Y20.5112 
G01 X5.8213 Y20.3803 
G01 X5.6229 Y20.2792 
G01 X5.4112 Y20.2104 
G01 X5.1913 Y20.1756 
G01 X4.9687 Y20.1756 
G01 X4.7488 Y20.2104 
G01 X4.5371 Y20.2792 
G01 X4.3387 Y20.3803 
G01 X4.1586 Y20.5112 
G01 X4.0012 Y20.6686 
G00 Z3.0000 
G00 X6.3500 Y22.2130 
G01 Z-0.1500 F300.00 
G01 X6.4103 Y22.3313 F300.00 
G01 X6.5412 Y22.5114 
G01 X6.6986 Y22.6688 
G01 X6.8787 Y22.7997 
G01 X7.0771 Y22.9008 
G01 X7.2500 Y22.9570 
G01 X7.2500 Y26.5739 
G01 X7.2788 Y26.7188 
G01 X7.2917 Y26.7498 
G01 X7.2638 Y26.7407 
G01 X7.0281 Y26.7034 
G01 X6.7895 Y26.7034 
G01 X6.5538 Y26.7407 
G01 X6.3269 Y26.8145 
G01 X6.1142 Y26.9228 
G01 X5.9212 Y27.0631 
G01 X5.7525 Y27.2318 
G01 X5.7500 Y27.2352 
G01 X5.7500 Y22.8360 
G01 X5.8213 Y22.7997 
G01 X6.0014 Y22.6688 
G01 X6.1588 Y22.5114 
G01 X6.2897 Y22.3313 
G01 X6.3500 Y22.2130 
G00 Z3.0000 
G00 X8.8900 Y22.2130 
G01 Z-0.1500 F300.00 
G01 X8.9503 Y22.3313 F300.00 
G01 X9.0812 Y22.5114 
G01 X9.2386 Y22.6688 
G01 X9.4187 Y22.7997 
G01 X9.6171 Y22.9008 
G01 X9.8288 Y22.9696 
G01 X10.0487 Y23.0044 
G01 X10.2713 Y23.0044 
G01 X10.4912 Y22.9696 
G01 X10.7029 Y22.9008 
G01 X10.9013 Y22.7997 
G01 X11.0814 Y22.6688 
G01 X11.2388 Y22.5114 
G01 X11.2500 Y22.4961 
G01 X11.2500 Y26.6893 
G01 X11.0219 Y26.9174 
G01 X10.9174 Y27.0219 
G01 X10.8354 Y27.1447 
G01 X10.7788 Y27.2812 
G01 X10.7500 Y27.4261 
G01 X10.7500 Y33.5739 
G01 X10.7788 Y33.7188 
G01 X10.8354 Y33.8553 
G01 X10.9174 Y33.9781 
G01 X13.8756 Y36.9363 
G01 X13.7662 Y36.9007 
G01 X13.5305 Y36.8634 
G01 X13.2919 Y36.8634 
G01 X13.0562 Y36.9007 
G01 X12.8293 Y36.9745 
G01 X12.6166 Y37.0828 
G01 X12.4236 Y37.2231 
G01 X12.3966 Y37.2500 
G01 X11.3107 Y37.2500 
G01 X9.7500 Y35.6893 
G01 X9.7500 Y27.4261 
G01 X9.7212 Y27.2812 
G01 X9.6646 Y27.1447 
G01 X9.5826 Y27.0219 
G01 X9.4781 Y26.9174 
G01 X8.7500 Y26.1893 
G01 X8.7500 Y22.4410 
G01 X8.8297 Y22.3313 
G01 X8.8900 Y22.2130 
G00 Z3.0000 
G00 X13.9292 Y22.3171 
G01 Z-0.1500 F300.00 
G01 X13.8604 Y22.5288 F300.00 
G01 X13.8256 Y22.7487 
G01 X13.8256 Y22.9713 
G01 X13.8604 Y23.1912 
G01 X13.9292 Y23.4029 
G01 X14.0303 Y23.6013 
G01 X14.1612 Y23.7814 
G01 X14.3186 Y23.9388 
G01 X14.4987 Y24.0697 
G01 X14.6971 Y24.1708 
G01 X14.9088 Y24.2396 
G01 X15.1287 Y24.2744 
G01 X15.3513 Y24.2744 
G01 X15.5712 Y24.2396 
G01 X15.7829 Y24.1708 
G01 X15.9813 Y24.0697 
G01 X16.1614 Y23.9388 
G01 X16.2500 Y23.8503 
G01 X16.2500 Y24.1893 
G01 X13.7079 Y26.7315 
G01 X13.5305 Y26.7034 
G01 X13.2919 Y26.7034 
G01 X13.0562 Y26.7407 
G01 X12.8293 Y26.8145 
G01 X12.7500 Y26.8549 
G01 X12.7500 Y18.8107 
G01 X13.8256 Y17.7351 
G01 X13.8256 Y17.8913 
G01 X13.8604 Y18.1112 
G01 X13.9292 Y18.3229 
G01 X14.0303 Y18.5213 
G01 X14.1612 Y18.7014 
G01 X14.3186 Y18.8588 
G01 X14.4987 Y18.9897 
G01 X14.6170 Y19.0500 
G01 X14.4987 Y19.1103 
G01 X14.3186 Y19.2412 
G01 X14.1612 Y19.3986 
G01 X14.0303 Y19.5787 
G01 X13.9292 Y19.7771 
G01 X13.8604 Y19.9888 
G01 X13.8256 Y20.2087 
G01 X13.8256 Y20.4313 
G01 X13.8604 Y20.6512 
G01 X13.9292 Y20.8629 
G01 X14.0303 Y21.0613 
G01 X14.1612 Y21.2414 
G01 X14.3186 Y21.3988 
G01 X14.4987 Y21.5297 
G01 X14.6170 Y21.5900 
G01 X14.4987 Y21.6503 
G01 X14.3186 Y21.7812 
G01 X14.1612 Y21.9386 
G01 X14.0303 Y22.1187 
G01 X13.9292 Y22.3171 
G00 Z3.0000 
G00 X16.5508 Y22.3171 
G01 Z-0.1500 F300.00 
G01 X16.4497 Y22.1187 F300.00 
G01 X16.3188 Y21.9386 
G01 X16.1614 Y21.7812 
G01 X15.9813 Y21.6503 
G01 X15.8630 Y21.5900 
G01 X15.9813 Y21.5297 
G01 X16.1614 Y21.3988 
G01 X16.3188 Y21.2414 
G01 X16.4497 Y21.0613 
G01 X16.5508 Y20.8629 
G01 X16.6196 Y20.6512 
G01 X16.6544 Y20.4313 
G01 X16.6544 Y20.2087 
G01 X16.6196 Y19.9888 
G01 X16.5508 Y19.7771 
G01 X16.4497 Y19.5787 
G01 X16.3188 Y19.3986 
G01 X16.1614 Y19.2412 
G01 X15.9813 Y19.1103 
G01 X15.8630 Y19.0500 
G01 X15.9813 Y18.9897 
G01 X16.1614 Y18.8588 
G01 X16.3188 Y18.7014 
G01 X16.4497 Y18.5213 
G01 X16.5508 Y18.3229 
G01 X16.6196 Y18.1112 
G01 X16.6544 Y17.8913 
G01 X16.6544 Y17.6687 
G01 X16.6196 Y17.4488 
G01 X16.5508 Y17.2371 
G01 X16.4497 Y17.0387 
G01 X16.3188 Y16.8586 
G01 X16.2103 Y16.7500 
G01 X21.5739 Y16.7500 
G01 X21.7188 Y16.7212 
G01 X21.8553 Y16.6646 
G01 X21.9781 Y16.5826 
G01 X22.0826 Y16.4781 
G01 X26.5149 Y12.0458 
G01 X26.4880 Y12.0986 
G01 X26.4118 Y12.3331 
G01 X26.3732 Y12.5767 
G01 X26.3732 Y12.8233 
G01 X26.4118 Y13.0669 
G01 X26.4880 Y13.3014 
G01 X26.6000 Y13.5212 
G01 X26.7449 Y13.7207 
G01 X26.9193 Y13.8951 
G01 X27.0224 Y13.9700 
G01 X26.9193 Y14.0449 
G01 X26.7449 Y14.2193 
G01 X26.6000 Y14.4188 
G01 X26.4880 Y14.6386 
G01 X26.4118 Y14.8731 
G01 X26.3888 Y15.0180 
G01 X26.3507 Y15.1060 
G01 X26.3032 Y15.2907 
G01 X26.2852 Y15.4805 
G01 X26.2971 Y15.6707 
G01 X26.3386 Y15.8568 
G01 X26.4088 Y16.0341 
G01 X26.5057 Y16.1982 
G01 X26.6272 Y16.3452 
G01 X26.7500 Y16.4535 
G01 X26.7500 Y20.6893 
G01 X24.2354 Y23.2039 
G01 X24.2396 Y23.1912 
G01 X24.2744 Y22.9713 
G01 X24.2744 Y22.7487 
G01 X24.2396 Y22.5288 
G01 X24.1708 Y22.3171 
G01 X24.0697 Y22.1187 
G01 X23.9388 Y21.9386 
G01 X23.7814 Y21.7812 
G01 X23.6013 Y21.6503 
G01 X23.4830 Y21.5900 
G01 X23.6013 Y21.5297 
G01 X23.7814 Y21.3988 
G01 X23.9388 Y21.2414 
G01 X24.0697 Y21.0613 
G01 X24.1708 Y20.8629 
G01 X24.2396 Y20.6512 
G01 X24.2744 Y20.4313 
G01 X24.2744 Y20.2087 
G01 X24.2396 Y19.9888 
G01 X24.1708 Y19.7771 
G01 X24.0697 Y19.5787 
G01 X23.9388 Y19.3986 
G01 X23.7814 Y19.2412 
G01 X23.6013 Y19.1103 
G01 X23.4830 Y19.0500 
G01 X23.6013 Y18.9897 
G01 X23.7814 Y18.8588 
G01 X23.9388 Y18.7014 
G01 X24.0697 Y18.5213 
G01 X24.1708 Y18.3229 
G01 X24.2396 Y18.1112 
G01 X24.2744 Y17.8913 
G01 X24.2744 Y17.6687 
G01 X24.2396 Y17.4488 
G01 X24.1708 Y17.2371 
G01 X24.0697 Y17.0387 
G01 X23.9388 Y16.8586 
G01 X23.7814 Y16.7012 
G01 X23.6013 Y16.5703 
G01 X23.4029 Y16.4692 
G01 X23.1912 Y16.4004 
G01 X22.9713 Y16.3656 
G01 X22.7487 Y16.3656 
G01 X22.5288 Y16.4004 
G01 X22.3171 Y16.4692 
G01 X22.1187 Y16.5703 
G01 X21.9386 Y16.7012 
G01 X21.7812 Y16.8586 
G01 X21.6503 Y17.0387 
G01 X21.5492 Y17.2371 
G01 X21.4804 Y17.4488 
G01 X21.4456 Y17.6687 
G01 X21.4456 Y17.8913 
G01 X21.4596 Y17.9797 
G01 X16.6544 Y22.7849 
G01 X16.6544 Y22.7487 
G01 X16.6196 Y22.5288 
G01 X16.5508 Y22.3171 
G00 Z3.0000 
G00 X17.7500 Y23.8107 
G01 Z-0.1500 F300.00 
G01 X21.4632 Y20.0974 F300.00 
G01 X21.4456 Y20.2087 
G01 X21.4456 Y20.4313 
G01 X21.4804 Y20.6512 
G01 X21.5492 Y20.8629 
G01 X21.6503 Y21.0613 
G01 X21.7812 Y21.2414 
G01 X21.9386 Y21.3988 
G01 X22.1187 Y21.5297 
G01 X22.2370 Y21.5900 
G01 X22.1187 Y21.6503 
G01 X21.9386 Y21.7812 
G01 X21.7812 Y21.9386 
G01 X21.6503 Y22.1187 
G01 X21.5492 Y22.3171 
G01 X21.4804 Y22.5288 
G01 X21.4456 Y22.7487 
G01 X21.4456 Y22.9713 
G01 X21.4804 Y23.1912 
G01 X21.5492 Y23.4029 
G01 X21.6503 Y23.6013 
G01 X21.7812 Y23.7814 
G01 X21.9386 Y23.9388 
G01 X22.1187 Y24.0697 
G01 X22.3171 Y24.1708 
G01 X22.5288 Y24.2396 
G01 X22.7487 Y24.2744 
G01 X22.9713 Y24.2744 
G01 X23.1912 Y24.2396 
G01 X23.2039 Y24.2354 
G01 X22.6893 Y24.7500 
G01 X20.9261 Y24.7500 
G01 X20.7812 Y24.7788 
G01 X20.6447 Y24.8354 
G01 X20.5219 Y24.9174 
G01 X18.5219 Y26.9174 
G01 X18.4174 Y27.0219 
G01 X18.3354 Y27.1447 
G01 X18.2788 Y27.2812 
G01 X18.2500 Y27.4261 
G01 X18.2500 Y39.1893 
G01 X13.3172 Y34.2566 
G01 X13.5305 Y34.2566 
G01 X13.7662 Y34.2193 
G01 X13.9931 Y34.1455 
G01 X14.2058 Y34.0372 
G01 X14.3988 Y33.8969 
G01 X14.5675 Y33.7282 
G01 X14.7078 Y33.5352 
G01 X14.8161 Y33.3225 
G01 X14.8899 Y33.0956 
G01 X14.9272 Y32.8599 
G01 X14.9272 Y32.6213 
G01 X14.8899 Y32.3856 
G01 X14.8161 Y32.1587 
G01 X14.7078 Y31.9460 
G01 X14.5675 Y31.7530 
G01 X14.3988 Y31.5843 
G01 X14.2058 Y31.4440 
G01 X13.9931 Y31.3357 
G01 X13.7662 Y31.2619 
G01 X13.5305 Y31.2246 
G01 X13.2919 Y31.2246 
G01 X13.0562 Y31.2619 
G01 X12.8293 Y31.3357 
G01 X12.6166 Y31.4440 
G01 X12.4236 Y31.5843 
G01 X12.2549 Y31.7530 
G01 X12.2500 Y31.7597 
G01 X12.2500 Y29.2003 
G01 X12.2549 Y29.2070 
G01 X12.4236 Y29.3757 
G01 X12.6166 Y29.5160 
G01 X12.8293 Y29.6243 
G01 X13.0562 Y29.6981 
G01 X13.2919 Y29.7354 
G01 X13.5305 Y29.7354 
G01 X13.7662 Y29.6981 
G01 X13.9931 Y29.6243 
G01 X14.2058 Y29.5160 
G01 X14.3988 Y29.3757 
G01 X14.5675 Y29.2070 
G01 X14.7078 Y29.0140 
G01 X14.8161 Y28.8013 
G01 X14.8899 Y28.5744 
G01 X14.9272 Y28.3387 
G01 X14.9272 Y28.1001 
G01 X14.8899 Y27.8644 
G01 X14.8424 Y27.7183 
G01 X17.5826 Y24.9781 
G01 X17.6646 Y24.8553 
G01 X17.7212 Y24.7188 
G01 X17.7500 Y24.5739 
G01 X17.7500 Y23.8107 
G00 Z3.0000 
G00 X21.3107 Y26.2500 
G01 Z-0.1500 F300.00 
G01 X23.0739 Y26.2500 F300.00 
G01 X23.2188 Y26.2212 
G01 X23.3553 Y26.1646 
G01 X23.4781 Y26.0826 
G01 X23.5826 Y25.9781 
G01 X25.2500 Y24.3106 
G01 X25.2500 Y49.0739 
G01 X25.2788 Y49.2188 
G01 X25.3354 Y49.3553 
G01 X25.4174 Y49.4781 
G01 X25.5219 Y49.5826 
G01 X26.4508 Y50.5115 
G01 X26.4240 Y50.6807 
G01 X26.4240 Y50.9193 
G01 X26.4613 Y51.1550 
G01 X26.5351 Y51.3819 
G01 X26.6434 Y51.5946 
G01 X26.7837 Y51.7876 
G01 X26.9524 Y51.9563 
G01 X27.1088 Y52.0700 
G01 X26.9524 Y52.1837 
G01 X26.7837 Y52.3524 
G01 X26.6434 Y52.5454 
G01 X26.5351 Y52.7581 
G01 X26.4613 Y52.9850 
G01 X26.4240 Y53.2207 
G01 X26.4240 Y53.4593 
G01 X26.4613 Y53.6950 
G01 X26.5351 Y53.9219 
G01 X26.6434 Y54.1346 
G01 X26.7837 Y54.3276 
G01 X26.9524 Y54.4963 
G01 X27.1088 Y54.6100 
G01 X26.9524 Y54.7237 
G01 X26.7837 Y54.8924 
G01 X26.6434 Y55.0854 
G01 X26.5351 Y55.2981 
G01 X26.4613 Y55.5250 
G01 X26.4240 Y55.7607 
G01 X26.4240 Y55.9993 
G01 X26.4613 Y56.2350 
G01 X26.5351 Y56.4619 
G01 X26.6434 Y56.6746 
G01 X26.7837 Y56.8676 
G01 X26.9524 Y57.0363 
G01 X27.1454 Y57.1766 
G01 X27.3581 Y57.2849 
G01 X27.5850 Y57.3587 
G01 X27.8207 Y57.3960 
G01 X28.0593 Y57.3960 
G01 X28.2950 Y57.3587 
G01 X28.5219 Y57.2849 
G01 X28.7346 Y57.1766 
G01 X28.9276 Y57.0363 
G01 X29.0963 Y56.8676 
G01 X29.2366 Y56.6746 
G01 X29.3449 Y56.4619 
G01 X29.4187 Y56.2350 
G01 X29.4560 Y55.9993 
G01 X29.4560 Y55.7607 
G01 X29.4187 Y55.5250 
G01 X29.3449 Y55.2981 
G01 X29.2366 Y55.0854 
G01 X29.0963 Y54.8924 
G01 X28.9276 Y54.7237 
G01 X28.7712 Y54.6100 
G01 X28.9276 Y54.4963 
G01 X29.0963 Y54.3276 
G01 X29.2366 Y54.1346 
G01 X29.3449 Y53.9219 
G01 X29.4187 Y53.6950 
G01 X29.4560 Y53.4593 
G01 X29.4560 Y53.2207 
G01 X29.4187 Y52.9850 
G01 X29.3449 Y52.7581 
G01 X29.2366 Y52.5454 
G01 X29.0963 Y52.3524 
G01 X28.9276 Y52.1837 
G01 X28.7712 Y52.0700 
G01 X28.9276 Y51.9563 
G01 X29.0963 Y51.7876 
G01 X29.2366 Y51.5946 
G01 X29.3449 Y51.3819 
G01 X29.4187 Y51.1550 
G01 X29.4560 Y50.9193 
G01 X29.4560 Y50.6807 
G01 X29.4187 Y50.4450 
G01 X29.3449 Y50.2181 
G01 X29.2366 Y50.0054 
G01 X29.0963 Y49.8124 
G01 X28.9276 Y49.6437 
G01 X28.7712 Y49.5300 
G01 X28.9276 Y49.4163 
G01 X29.0963 Y49.2476 
G01 X29.2366 Y49.0546 
G01 X29.3449 Y48.8419 
G01 X29.4187 Y48.6150 
G01 X29.4560 Y48.3793 
G01 X29.4560 Y48.1407 
G01 X29.4187 Y47.9050 
G01 X29.3449 Y47.6781 
G01 X29.2366 Y47.4654 
G01 X29.0963 Y47.2724 
G01 X28.9276 Y47.1037 
G01 X28.7712 Y46.9900 
G01 X28.9276 Y46.8763 
G01 X29.0963 Y46.7076 
G01 X29.2366 Y46.5146 
G01 X29.3449 Y46.3019 
G01 X29.4187 Y46.0750 
G01 X29.4560 Y45.8393 
G01 X29.4560 Y45.6007 
G01 X29.4187 Y45.3650 
G01 X29.3449 Y45.1381 
G01 X29.2366 Y44.9254 
G01 X29.0963 Y44.7324 
G01 X28.9276 Y44.5637 
G01 X28.7712 Y44.4500 
G01 X28.9276 Y44.3363 
G01 X29.0963 Y44.1676 
G01 X29.2366 Y43.9746 
G01 X29.3449 Y43.7619 
G01 X29.4187 Y43.5350 
G01 X29.4560 Y43.2993 
G01 X29.4560 Y43.1047 
G01 X33.2500 Y39.3107 
G01 X33.2500 Y54.1893 
G01 X28.1422 Y59.2971 
G01 X28.0621 Y59.2866 
G01 X27.8716 Y59.2919 
G01 X27.6841 Y59.3268 
G01 X27.5045 Y59.3907 
G01 X27.3371 Y59.4819 
G01 X27.2335 Y59.5615 
G01 X27.1597 Y59.5991 
G01 X19.7500 Y52.1893 
G01 X19.7500 Y27.8107 
G01 X21.3107 Y26.2500 
G00 Z3.0000 
G00 X26.7837 Y26.9524 
G01 Z-0.1500 F300.00 
G01 X26.7500 Y26.9987 F300.00 
G01 X26.7500 Y24.3107 
G01 X36.4781 Y14.5826 
G01 X36.5826 Y14.4781 
G01 X36.6646 Y14.3553 
G01 X36.7212 Y14.2188 
G01 X36.7500 Y14.0739 
G01 X36.7500 Y13.5016 
G01 X36.7600 Y13.5212 
G01 X36.9049 Y13.7207 
G01 X37.0793 Y13.8951 
G01 X37.1824 Y13.9700 
G01 X37.0793 Y14.0449 
G01 X36.9049 Y14.2193 
G01 X36.7600 Y14.4188 
G01 X36.6480 Y14.6386 
G01 X36.5718 Y14.8731 
G01 X36.5332 Y15.1167 
G01 X36.5332 Y15.3633 
G01 X36.5718 Y15.6069 
G01 X36.6480 Y15.8414 
G01 X36.7600 Y16.0612 
G01 X36.9049 Y16.2607 
G01 X37.0793 Y16.4351 
G01 X37.2788 Y16.5800 
G01 X37.4986 Y16.6920 
G01 X37.7331 Y16.7682 
G01 X37.9767 Y16.8068 
G01 X38.2233 Y16.8068 
G01 X38.4669 Y16.7682 
G01 X38.7014 Y16.6920 
G01 X38.9212 Y16.5800 
G01 X39.1207 Y16.4351 
G01 X39.2951 Y16.2607 
G01 X39.3700 Y16.1576 
G01 X39.4449 Y16.2607 
G01 X39.6193 Y16.4351 
G01 X39.8188 Y16.5800 
G01 X40.0386 Y16.6920 
G01 X40.1952 Y16.7429 
G01 X39.5420 Y17.3961 
G01 X39.5420 Y18.3973 
G01 X31.8973 Y26.0420 
G01 X30.8961 Y26.0420 
G01 X30.0420 Y26.8961 
G01 X30.0420 Y28.1039 
G01 X30.8961 Y28.9580 
G01 X32.1039 Y28.9580 
G01 X32.9580 Y28.1039 
G01 X32.9580 Y27.1027 
G01 X40.6027 Y19.4580 
G01 X41.6039 Y19.4580 
G01 X42.4580 Y18.6039 
G01 X42.4580 Y17.3961 
G01 X41.6039 Y16.5420 
G01 X41.5135 Y16.5420 
G01 X41.6607 Y16.4351 
G01 X41.8351 Y16.2607 
G01 X41.8429 Y16.2500 
G01 X44.0420 Y16.2500 
G01 X44.0420 Y17.1039 
G01 X44.8961 Y17.9580 
G01 X46.1039 Y17.9580 
G01 X46.7500 Y17.3119 
G01 X46.7500 Y17.6893 
G01 X35.3973 Y29.0420 
G01 X34.3961 Y29.0420 
G01 X33.5420 Y29.8961 
G01 X33.5420 Y31.1039 
G01 X34.3961 Y31.9580 
G01 X35.4813 Y31.9580 
G01 X32.4174 Y35.0219 
G01 X32.3354 Y35.1447 
G01 X32.2788 Y35.2812 
G01 X32.2500 Y35.4261 
G01 X32.2500 Y38.1893 
G01 X29.4063 Y41.0330 
G01 X29.4187 Y40.9950 
G01 X29.4560 Y40.7593 
G01 X29.4560 Y40.5207 
G01 X29.4187 Y40.2850 
G01 X29.3449 Y40.0581 
G01 X29.2366 Y39.8454 
G01 X29.0963 Y39.6524 
G01 X28.9276 Y39.4837 
G01 X28.7712 Y39.3700 
G01 X28.9276 Y39.2563 
G01 X29.0963 Y39.0876 
G01 X29.2366 Y38.8946 
G01 X29.3449 Y38.6819 
G01 X29.4187 Y38.4550 
G01 X29.4560 Y38.2193 
G01 X29.4560 Y37.9807 
G01 X29.4187 Y37.7450 
G01 X29.3449 Y37.5181 
G01 X29.2366 Y37.3054 
G01 X29.0963 Y37.1124 
G01 X28.9276 Y36.9437 
G01 X28.7712 Y36.8300 
G01 X28.9276 Y36.7163 
G01 X29.0963 Y36.5476 
G01 X29.2366 Y36.3546 
G01 X29.3449 Y36.1419 
G01 X29.4187 Y35.9150 
G01 X29.4560 Y35.6793 
G01 X29.4560 Y35.4407 
G01 X29.4187 Y35.2050 
G01 X29.3449 Y34.9781 
G01 X29.2366 Y34.7654 
G01 X29.0963 Y34.5724 
G01 X28.9276 Y34.4037 
G01 X28.7712 Y34.2900 
G01 X28.9276 Y34.1763 
G01 X29.0963 Y34.0076 
G01 X29.2366 Y33.8146 
G01 X29.3449 Y33.6019 
G01 X29.4187 Y33.3750 
G01 X29.4560 Y33.1393 
G01 X29.4560 Y32.9007 
G01 X29.4187 Y32.6650 
G01 X29.3449 Y32.4381 
G01 X29.2366 Y32.2254 
G01 X29.0963 Y32.0324 
G01 X28.9276 Y31.8637 
G01 X28.7712 Y31.7500 
G01 X28.9276 Y31.6363 
G01 X29.0963 Y31.4676 
G01 X29.2366 Y31.2746 
G01 X29.3449 Y31.0619 
G01 X29.4187 Y30.8350 
G01 X29.4560 Y30.5993 
G01 X29.4560 Y30.3607 
G01 X29.4187 Y30.1250 
G01 X29.3449 Y29.8981 
G01 X29.2366 Y29.6854 
G01 X29.0963 Y29.4924 
G01 X28.9276 Y29.3237 
G01 X28.7712 Y29.2100 
G01 X28.9276 Y29.0963 
G01 X29.0963 Y28.9276 
G01 X29.2366 Y28.7346 
G01 X29.3449 Y28.5219 
G01 X29.4187 Y28.2950 
G01 X29.4560 Y28.0593 
G01 X29.4560 Y27.8207 
G01 X29.4187 Y27.5850 
G01 X29.3449 Y27.3581 
G01 X29.2366 Y27.1454 
G01 X29.0963 Y26.9524 
G01 X28.9276 Y26.7837 
G01 X28.7346 Y26.6434 
G01 X28.5219 Y26.5351 
G01 X28.2950 Y26.4613 
G01 X28.0593 Y26.4240 
G01 X27.8207 Y26.4240 
G01 X27.5850 Y26.4613 
G01 X27.3581 Y26.5351 
G01 X27.1454 Y26.6434 
G01 X26.9524 Y26.7837 
G01 X26.7837 Y26.9524 
G00 Z3.0000 
G00 X26.7500 Y28.8813 
G01 Z-0.1500 F300.00 
G01 X26.7837 Y28.9276 F300.00 
G01 X26.9524 Y29.0963 
G01 X27.1088 Y29.2100 
G01 X26.9524 Y29.3237 
G01 X26.7837 Y29.4924 
G01 X26.7500 Y29.5387 
G01 X26.7500 Y28.8813 
G00 Z3.0000 
G00 X26.7500 Y31.4213 
G01 Z-0.1500 F300.00 
G01 X26.7837 Y31.4676 F300.00 
G01 X26.9524 Y31.6363 
G01 X27.1088 Y31.7500 
G01 X26.9524 Y31.8637 
G01 X26.7837 Y32.0324 
G01 X26.7500 Y32.0787 
G01 X26.7500 Y31.4213 
G00 Z3.0000 
G00 X26.7500 Y33.9613 
G01 Z-0.1500 F300.00 
G01 X26.7837 Y34.0076 F300.00 
G01 X26.9524 Y34.1763 
G01 X27.1088 Y34.2900 
G01 X26.9524 Y34.4037 
G01 X26.7837 Y34.5724 
G01 X26.7500 Y34.6187 
G01 X26.7500 Y33.9613 
G00 Z3.0000 
G00 X26.7500 Y36.5013 
G01 Z-0.1500 F300.00 
G01 X26.7837 Y36.5476 F300.00 
G01 X26.9524 Y36.7163 
G01 X27.1088 Y36.8300 
G01 X26.9524 Y36.9437 
G01 X26.7837 Y37.1124 
G01 X26.7500 Y37.1587 
G01 X26.7500 Y36.5013 
G00 Z3.0000 
G00 X26.7500 Y39.0413 
G01 Z-0.1500 F300.00 
G01 X26.7837 Y39.0876 F300.00 
G01 X26.9524 Y39.2563 
G01 X27.1088 Y39.3700 
G01 X26.9524 Y39.4837 
G01 X26.7837 Y39.6524 
G01 X26.7500 Y39.6987 
G01 X26.7500 Y39.0413 
G00 Z3.0000 
G00 X26.7500 Y41.5813 
G01 Z-0.1500 F300.00 
G01 X26.7837 Y41.6276 F300.00 
G01 X26.9524 Y41.7963 
G01 X27.1088 Y41.9100 
G01 X26.9524 Y42.0237 
G01 X26.7837 Y42.1924 
G01 X26.7500 Y42.2387 
G01 X26.7500 Y41.5813 
G00 Z3.0000 
G00 X26.7500 Y44.1213 
G01 Z-0.1500 F300.00 
G01 X26.7837 Y44.1676 F300.00 
G01 X26.9524 Y44.3363 
G01 X27.1088 Y44.4500 
G01 X26.9524 Y44.5637 
G01 X26.7837 Y44.7324 
G01 X26.7500 Y44.7787 
G01 X26.7500 Y44.1213 
G00 Z3.0000 
G00 X26.7500 Y46.6613 
G01 Z-0.1500 F300.00 
G01 X26.7837 Y46.7076 F300.00 
G01 X26.9524 Y46.8763 
G01 X27.1088 Y46.9900 
G01 X26.9524 Y47.1037 
G01 X26.7837 Y47.2724 
G01 X26.7500 Y47.3187 
G01 X26.7500 Y46.6613 
G00 Z3.0000 
G00 X34.7500 Y50.1893 
G01 Z-0.1500 F300.00 
G01 X34.7500 Y38.3119 F300.00 
G01 X35.3961 Y38.9580 
G01 X36.3973 Y38.9580 
G01 X39.4174 Y41.9781 
G01 X39.5219 Y42.0826 
G01 X39.6447 Y42.1646 
G01 X39.7812 Y42.2212 
G01 X39.9261 Y42.2500 
G01 X41.9818 Y42.2500 
G01 X41.8834 Y42.3854 
G01 X41.7751 Y42.5981 
G01 X41.7013 Y42.8250 
G01 X41.6640 Y43.0607 
G01 X41.6640 Y43.2753 
G01 X34.7500 Y50.1893 
G00 Z3.0000 
G00 X35.7500 Y51.3107 
G01 Z-0.1500 F300.00 
G01 X41.7041 Y45.3566 F300.00 
G01 X41.7013 Y45.3650 
G01 X41.6640 Y45.6007 
G01 X41.6640 Y45.7753 
G01 X35.7500 Y51.6893 
G01 X35.7500 Y51.3107 
G00 Z3.0000 
G00 X36.7500 Y52.8107 
G01 Z-0.1500 F300.00 
G01 X41.7233 Y47.8373 F300.00 
G01 X41.7013 Y47.9050 
G01 X41.6640 Y48.1407 
G01 X41.6640 Y48.3793 
G01 X41.7013 Y48.6150 
G01 X41.7751 Y48.8419 
G01 X41.8834 Y49.0546 
G01 X42.0237 Y49.2476 
G01 X42.1924 Y49.4163 
G01 X42.3488 Y49.5300 
G01 X42.1924 Y49.6437 
G01 X42.0237 Y49.8124 
G01 X41.8834 Y50.0054 
G01 X41.7751 Y50.2181 
G01 X41.7013 Y50.4450 
G01 X41.6640 Y50.6807 
G01 X41.6640 Y50.9193 
G01 X41.7013 Y51.1550 
G01 X41.7751 Y51.3819 
G01 X41.8834 Y51.5946 
G01 X42.0237 Y51.7876 
G01 X42.1924 Y51.9563 
G01 X42.3488 Y52.0700 
G01 X42.1924 Y52.1837 
G01 X42.0237 Y52.3524 
G01 X41.8834 Y52.5454 
G01 X41.7751 Y52.7581 
G01 X41.7013 Y52.9850 
G01 X41.6640 Y53.2207 
G01 X41.6640 Y53.4593 
G01 X41.7013 Y53.6950 
G01 X41.7751 Y53.9219 
G01 X41.8834 Y54.1346 
G01 X42.0237 Y54.3276 
G01 X42.1924 Y54.4963 
G01 X42.3488 Y54.6100 
G01 X42.1924 Y54.7237 
G01 X42.0237 Y54.8924 
G01 X41.9100 Y55.0488 
G01 X41.7963 Y54.8924 
G01 X41.6276 Y54.7237 
G01 X41.4346 Y54.5834 
G01 X41.2219 Y54.4751 
G01 X40.9950 Y54.4013 
G01 X40.7593 Y54.3640 
G01 X40.5207 Y54.3640 
G01 X40.2850 Y54.4013 
G01 X40.0581 Y54.4751 
G01 X39.8454 Y54.5834 
G01 X39.6524 Y54.7237 
G01 X39.4837 Y54.8924 
G01 X39.3700 Y55.0488 
G01 X39.2563 Y54.8924 
G01 X39.0876 Y54.7237 
G01 X38.8946 Y54.5834 
G01 X38.6819 Y54.4751 
G01 X38.4550 Y54.4013 
G01 X38.2193 Y54.3640 
G01 X37.9807 Y54.3640 
G01 X37.7450 Y54.4013 
G01 X37.5181 Y54.4751 
G01 X37.3054 Y54.5834 
G01 X37.1124 Y54.7237 
G01 X36.9437 Y54.8924 
G01 X36.8034 Y55.0854 
G01 X36.7500 Y55.1903 
G01 X36.7500 Y52.8107 
G00 Z3.0000 
G00 X34.2500 Y55.3107 
G01 Z-0.1500 F300.00 
G01 X34.2500 Y59.1893 F300.00 
G01 X29.4180 Y64.0213 
G01 X29.4682 Y63.8669 
G01 X29.5068 Y63.6233 
G01 X29.5068 Y63.3767 
G01 X29.4682 Y63.1331 
G01 X29.3920 Y62.8986 
G01 X29.2800 Y62.6788 
G01 X29.1351 Y62.4793 
G01 X28.9607 Y62.3049 
G01 X28.8576 Y62.2300 
G01 X28.9607 Y62.1551 
G01 X29.1351 Y61.9807 
G01 X29.2800 Y61.7812 
G01 X29.3920 Y61.5614 
G01 X29.4682 Y61.3269 
G01 X29.5068 Y61.0833 
G01 X29.5068 Y60.8367 
G01 X29.4682 Y60.5931 
G01 X29.3920 Y60.3586 
G01 X29.3279 Y60.2327 
G01 X34.2500 Y55.3107 
G00 Z3.0000 
G00 X38.7505 Y57.2500 
G01 Z-0.1500 F300.00 
G01 X38.8946 Y57.1766 F300.00 
G01 X39.0876 Y57.0363 
G01 X39.2563 Y56.8676 
G01 X39.3700 Y56.7112 
G01 X39.4837 Y56.8676 
G01 X39.6524 Y57.0363 
G01 X39.8454 Y57.1766 
G01 X39.9895 Y57.2500 
G01 X38.7505 Y57.2500 
G00 Z3.0000 
G00 X40.9102 Y57.3721 
G01 Z-0.1500 F300.00 
G01 X40.9950 Y57.3587 F300.00 
G01 X41.2219 Y57.2849 
G01 X41.4346 Y57.1766 
G01 X41.6276 Y57.0363 
G01 X41.7963 Y56.8676 
G01 X41.9100 Y56.7112 
G01 X42.0237 Y56.8676 
G01 X42.1924 Y57.0363 
G01 X42.3854 Y57.1766 
G01 X42.5981 Y57.2849 
G01 X42.7500 Y57.3343 
G01 X42.7500 Y59.0739 
G01 X42.7787 Y59.2180 
G01 X41.0826 Y57.5219 
G01 X40.9781 Y57.4174 
G01 X40.9102 Y57.3721 
G00 Z3.0000 
G00 X44.2500 Y56.9539 
G01 Z-0.1500 F300.00 
G01 X44.3363 Y56.8676 F300.00 
G01 X44.4766 Y56.6746 
G01 X44.5849 Y56.4619 
G01 X44.6587 Y56.2350 
G01 X44.6960 Y55.9993 
G01 X44.6960 Y55.7607 
G01 X44.6587 Y55.5250 
G01 X44.5849 Y55.2981 
G01 X44.4766 Y55.0854 
G01 X44.3363 Y54.8924 
G01 X44.1676 Y54.7237 
G01 X44.0112 Y54.6100 
G01 X44.1676 Y54.4963 
G01 X44.3363 Y54.3276 
G01 X44.4766 Y54.1346 
G01 X44.5849 Y53.9219 
G01 X44.6587 Y53.6950 
G01 X44.6960 Y53.4593 
G01 X44.6960 Y53.2207 
G01 X44.6587 Y52.9850 
G01 X44.5849 Y52.7581 
G01 X44.4766 Y52.5454 
G01 X44.3363 Y52.3524 
G01 X44.1676 Y52.1837 
G01 X44.0112 Y52.0700 
G01 X44.1676 Y51.9563 
G01 X44.3363 Y51.7876 
G01 X44.4766 Y51.5946 
G01 X44.5849 Y51.3819 
G01 X44.6587 Y51.1550 
G01 X44.6960 Y50.9193 
G01 X44.6960 Y50.6807 
G01 X44.6587 Y50.4450 
G01 X44.5849 Y50.2181 
G01 X44.4766 Y50.0054 
G01 X44.3363 Y49.8124 
G01 X44.1676 Y49.6437 
G01 X44.0112 Y49.5300 
G01 X44.1676 Y49.4163 
G01 X44.3363 Y49.2476 
G01 X44.4766 Y49.0546 
G01 X44.5849 Y48.8419 
G01 X44.6587 Y48.6150 
G01 X44.6960 Y48.3793 
G01 X44.6960 Y48.1407 
G01 X44.6587 Y47.9050 
G01 X44.5849 Y47.6781 
G01 X44.4766 Y47.4654 
G01 X44.3363 Y47.2724 
G01 X44.1676 Y47.1037 
G01 X44.0112 Y46.9900 
G01 X44.1676 Y46.8763 
G01 X44.3363 Y46.7076 
G01 X44.4766 Y46.5146 
G01 X44.5849 Y46.3019 
G01 X44.6587 Y46.0750 
G01 X44.6960 Y45.8393 
G01 X44.6960 Y45.6007 
G01 X44.6587 Y45.3650 
G01 X44.5849 Y45.1381 
G01 X44.4766 Y44.9254 
G01 X44.3363 Y44.7324 
G01 X44.1676 Y44.5637 
G01 X44.0112 Y44.4500 
G01 X44.1676 Y44.3363 
G01 X44.3363 Y44.1676 
G01 X44.4766 Y43.9746 
G01 X44.5849 Y43.7619 
G01 X44.6587 Y43.5350 
G01 X44.6960 Y43.2993 
G01 X44.6960 Y43.0607 
G01 X44.6587 Y42.8250 
G01 X44.5849 Y42.5981 
G01 X44.4766 Y42.3854 
G01 X44.3363 Y42.1924 
G01 X44.1676 Y42.0237 
G01 X44.0112 Y41.9100 
G01 X44.1676 Y41.7963 
G01 X44.3363 Y41.6276 
G01 X44.4766 Y41.4346 
G01 X44.5849 Y41.2219 
G01 X44.6587 Y40.9950 
G01 X44.6960 Y40.7593 
G01 X44.6960 Y40.5207 
G01 X44.6587 Y40.2850 
G01 X44.5849 Y40.0581 
G01 X44.4766 Y39.8454 
G01 X44.3363 Y39.6524 
G01 X44.1676 Y39.4837 
G01 X44.0112 Y39.3700 
G01 X44.1676 Y39.2563 
G01 X44.3363 Y39.0876 
G01 X44.4766 Y38.8946 
G01 X44.5849 Y38.6819 
G01 X44.6587 Y38.4550 
G01 X44.6960 Y38.2193 
G01 X44.6960 Y37.9807 
G01 X44.6587 Y37.7450 
G01 X44.5849 Y37.5181 
G01 X44.4766 Y37.3054 
G01 X44.3363 Y37.1124 
G01 X44.1676 Y36.9437 
G01 X44.0112 Y36.8300 
G01 X44.1213 Y36.7500 
G01 X44.1893 Y36.7500 
G01 X46.7500 Y39.3107 
G01 X46.7500 Y52.0739 
G01 X46.7788 Y52.2188 
G01 X46.8354 Y52.3553 
G01 X46.9174 Y52.4781 
G01 X47.0219 Y52.5826 
G01 X48.0219 Y53.5826 
G01 X48.1447 Y53.6646 
G01 X48.2812 Y53.7212 
G01 X48.4261 Y53.7500 
G01 X51.6893 Y53.7500 
G01 X57.4048 Y59.4655 
G01 X57.2693 Y59.4440 
G01 X57.0307 Y59.4440 
G01 X56.7950 Y59.4813 
G01 X56.5681 Y59.5551 
G01 X56.3554 Y59.6634 
G01 X56.1624 Y59.8037 
G01 X55.9937 Y59.9724 
G01 X55.8534 Y60.1654 
G01 X55.7451 Y60.3781 
G01 X55.6713 Y60.6050 
G01 X55.6340 Y60.8407 
G01 X55.6340 Y61.0793 
G01 X55.6713 Y61.3150 
G01 X55.7451 Y61.5419 
G01 X55.8534 Y61.7546 
G01 X55.9937 Y61.9476 
G01 X56.1624 Y62.1163 
G01 X56.3188 Y62.2300 
G01 X56.1624 Y62.3437 
G01 X55.9937 Y62.5124 
G01 X55.8534 Y62.7054 
G01 X55.7451 Y62.9181 
G01 X55.6713 Y63.1450 
G01 X55.6340 Y63.3807 
G01 X55.6340 Y63.6193 
G01 X55.6713 Y63.8550 
G01 X55.7451 Y64.0819 
G01 X55.8534 Y64.2946 
G01 X55.9937 Y64.4876 
G01 X56.1624 Y64.6563 
G01 X56.3188 Y64.7700 
G01 X56.1624 Y64.8837 
G01 X55.9937 Y65.0524 
G01 X55.8534 Y65.2454 
G01 X55.7451 Y65.4581 
G01 X55.6713 Y65.6850 
G01 X55.6340 Y65.9207 
G01 X55.6340 Y66.1593 
G01 X55.6713 Y66.3950 
G01 X55.7451 Y66.6219 
G01 X55.8534 Y66.8346 
G01 X55.9937 Y67.0276 
G01 X56.1624 Y67.1963 
G01 X56.3554 Y67.3366 
G01 X56.5681 Y67.4449 
G01 X56.7950 Y67.5187 
G01 X57.0307 Y67.5560 
G01 X57.2693 Y67.5560 
G01 X57.4644 Y67.5251 
G01 X59.9174 Y69.9781 
G01 X60.0219 Y70.0826 
G01 X60.1447 Y70.1646 
G01 X60.2812 Y70.2212 
G01 X60.4261 Y70.2500 
G01 X72.5568 Y70.2500 
G01 X72.6032 Y70.3929 
G01 X72.7043 Y70.5913 
G01 X72.8352 Y70.7714 
G01 X72.9926 Y70.9288 
G01 X73.1727 Y71.0597 
G01 X73.3711 Y71.1608 
G01 X73.5828 Y71.2296 
G01 X73.7118 Y71.2500 
G01 X56.8107 Y71.2500 
G01 X50.6182 Y65.0575 
G01 X50.6767 Y65.0668 
G01 X50.9233 Y65.0668 
G01 X51.1669 Y65.0282 
G01 X51.4014 Y64.9520 
G01 X51.6212 Y64.8400 
G01 X51.8207 Y64.6951 
G01 X51.9951 Y64.5207 
G01 X52.1400 Y64.3212 
G01 X52.2520 Y64.1014 
G01 X52.3282 Y63.8669 
G01 X52.3668 Y63.6233 
G01 X52.3668 Y63.3767 
G01 X52.3282 Y63.1331 
G01 X52.2520 Y62.8986 
G01 X52.1400 Y62.6788 
G01 X51.9951 Y62.4793 
G01 X51.8207 Y62.3049 
G01 X51.7176 Y62.2300 
G01 X51.8207 Y62.1551 
G01 X51.9951 Y61.9807 
G01 X52.1400 Y61.7812 
G01 X52.2520 Y61.5614 
G01 X52.3282 Y61.3269 
G01 X52.3668 Y61.0833 
G01 X52.3668 Y60.8367 
G01 X52.3282 Y60.5931 
G01 X52.2520 Y60.3586 
G01 X52.1400 Y60.1388 
G01 X51.9951 Y59.9393 
G01 X51.8207 Y59.7649 
G01 X51.6212 Y59.6200 
G01 X51.4014 Y59.5080 
G01 X51.1669 Y59.4318 
G01 X50.9233 Y59.3932 
G01 X50.6767 Y59.3932 
G01 X50.4331 Y59.4318 
G01 X50.1986 Y59.5080 
G01 X49.9788 Y59.6200 
G01 X49.7793 Y59.7649 
G01 X49.6049 Y59.9393 
G01 X49.4600 Y60.1388 
G01 X49.3480 Y60.3586 
G01 X49.2718 Y60.5931 
G01 X49.2332 Y60.8367 
G01 X49.2332 Y61.0833 
G01 X49.2718 Y61.3269 
G01 X49.3480 Y61.5614 
G01 X49.4600 Y61.7812 
G01 X49.6049 Y61.9807 
G01 X49.7793 Y62.1551 
G01 X49.8824 Y62.2300 
G01 X49.7793 Y62.3049 
G01 X49.6049 Y62.4793 
G01 X49.4600 Y62.6788 
G01 X49.3480 Y62.8986 
G01 X49.2718 Y63.1331 
G01 X49.2332 Y63.3767 
G01 X49.2332 Y63.6233 
G01 X49.2425 Y63.6818 
G01 X44.2500 Y58.6893 
G01 X44.2500 Y56.9539 
G00 Z3.0000 
G00 X43.7213 Y60.2820 
G01 Z-0.1500 F300.00 
G01 X56.0219 Y72.5826 F300.00 
G01 X56.1447 Y72.6646 
G01 X56.2812 Y72.7212 
G01 X56.4261 Y72.7500 
G01 X76.6893 Y72.7500 
G01 X78.1976 Y74.2583 
G01 X78.0664 Y74.2231 
G01 X77.8050 Y74.1887 
G01 X77.5414 Y74.1887 
G01 X77.2800 Y74.2231 
G01 X77.0253 Y74.2914 
G01 X76.7817 Y74.3923 
G01 X76.5534 Y74.5241 
G01 X76.3442 Y74.6846 
G01 X76.1578 Y74.8710 
G01 X75.9973 Y75.0802 
G01 X75.8654 Y75.3085 
G01 X75.7646 Y75.5521 
G01 X75.6963 Y75.8068 
G01 X75.6666 Y76.0325 
G01 X75.6369 Y75.8068 
G01 X75.5686 Y75.5521 
G01 X75.4677 Y75.3085 
G01 X75.3359 Y75.0802 
G01 X75.1754 Y74.8710 
G01 X74.9890 Y74.6846 
G01 X74.7798 Y74.5241 
G01 X74.5515 Y74.3923 
G01 X74.3079 Y74.2914 
G01 X74.0532 Y74.2231 
G01 X73.7918 Y74.1887 
G01 X73.5282 Y74.1887 
G01 X73.2668 Y74.2231 
G01 X73.0121 Y74.2914 
G01 X72.7685 Y74.3923 
G01 X72.5402 Y74.5241 
G01 X72.3310 Y74.6846 
G01 X72.1446 Y74.8710 
G01 X71.9841 Y75.0802 
G01 X71.8522 Y75.3085 
G01 X71.7514 Y75.5521 
G01 X71.6831 Y75.8068 
G01 X71.6534 Y76.0325 
G01 X71.6237 Y75.8068 
G01 X71.5554 Y75.5521 
G01 X71.4545 Y75.3085 
G01 X71.3227 Y75.0802 
G01 X71.1622 Y74.8710 
G01 X70.9758 Y74.6846 
G01 X70.7666 Y74.5241 
G01 X70.5383 Y74.3923 
G01 X70.2947 Y74.2914 
G01 X70.0400 Y74.2231 
G01 X69.7786 Y74.1887 
G01 X69.5150 Y74.1887 
G01 X69.2536 Y74.2231 
G01 X68.9989 Y74.2914 
G01 X68.7553 Y74.3923 
G01 X68.5270 Y74.5241 
G01 X68.3178 Y74.6846 
G01 X68.1314 Y74.8710 
G01 X67.9709 Y75.0802 
G01 X67.8391 Y75.3085 
G01 X67.7382 Y75.5521 
G01 X67.6699 Y75.8068 
G01 X67.6355 Y76.0682 
G01 X67.6355 Y76.3318 
G01 X67.6699 Y76.5932 
G01 X67.7382 Y76.8479 
G01 X67.8391 Y77.0915 
G01 X67.9709 Y77.3198 
G01 X68.1314 Y77.5290 
G01 X68.3178 Y77.7154 
G01 X68.5270 Y77.8759 
G01 X68.7553 Y78.0077 
G01 X68.9989 Y78.1086 
G01 X69.2536 Y78.1769 
G01 X69.5150 Y78.2113 
G01 X69.7786 Y78.2113 
G01 X70.0400 Y78.1769 
G01 X70.2947 Y78.1086 
G01 X70.5383 Y78.0077 
G01 X70.7666 Y77.8759 
G01 X70.9758 Y77.7154 
G01 X71.1622 Y77.5290 
G01 X71.3227 Y77.3198 
G01 X71.4545 Y77.0915 
G01 X71.5554 Y76.8479 
G01 X71.6237 Y76.5932 
G01 X71.6534 Y76.3675 
G01 X71.6831 Y76.5932 
G01 X71.7514 Y76.8479 
G01 X71.8522 Y77.0915 
G01 X71.9841 Y77.3198 
G01 X72.1446 Y77.5290 
G01 X72.3310 Y77.7154 
G01 X72.5402 Y77.8759 
G01 X72.7685 Y78.0077 
G01 X73.0121 Y78.1086 
G01 X73.2668 Y78.1769 
G01 X73.5282 Y78.2113 
G01 X73.7918 Y78.2113 
G01 X74.0532 Y78.1769 
G01 X74.3079 Y78.1086 
G01 X74.5515 Y78.0077 
G01 X74.7798 Y77.8759 
G01 X74.9890 Y77.7154 
G01 X75.1754 Y77.5290 
G01 X75.3359 Y77.3198 
G01 X75.4677 Y77.0915 
G01 X75.5686 Y76.8479 
G01 X75.6369 Y76.5932 
G01 X75.6666 Y76.3675 
G01 X75.6963 Y76.5932 
G01 X75.7646 Y76.8479 
G01 X75.8654 Y77.0915 
G01 X75.9973 Y77.3198 
G01 X76.1578 Y77.5290 
G01 X76.3442 Y77.7154 
G01 X76.5534 Y77.8759 
G01 X76.7817 Y78.0077 
G01 X77.0253 Y78.1086 
G01 X77.2652 Y78.1729 
G01 X76.6881 Y78.7500 
G01 X58.8107 Y78.7500 
G01 X57.8836 Y77.8230 
G01 X58.0864 Y77.8773 
G01 X58.3081 Y77.9065 
G01 X58.5318 Y77.9065 
G01 X58.7536 Y77.8773 
G01 X58.9697 Y77.8194 
G01 X59.1764 Y77.7338 
G01 X59.3701 Y77.6219 
G01 X59.5476 Y77.4858 
G01 X59.7058 Y77.3276 
G01 X59.8419 Y77.1501 
G01 X59.9538 Y76.9564 
G01 X60.0394 Y76.7497 
G01 X60.0973 Y76.5336 
G01 X60.1265 Y76.3119 
G01 X60.1265 Y76.0881 
G01 X60.0973 Y75.8664 
G01 X60.0394 Y75.6503 
G01 X59.9538 Y75.4436 
G01 X59.8419 Y75.2499 
G01 X59.7058 Y75.0724 
G01 X59.5476 Y74.9142 
G01 X59.3701 Y74.7781 
G01 X59.1764 Y74.6662 
G01 X58.9697 Y74.5806 
G01 X58.7536 Y74.5227 
G01 X58.5318 Y74.4935 
G01 X58.3081 Y74.4935 
G01 X58.0864 Y74.5227 
G01 X57.8703 Y74.5806 
G01 X57.6636 Y74.6662 
G01 X57.4699 Y74.7781 
G01 X57.2924 Y74.9142 
G01 X57.1342 Y75.0724 
G01 X56.9981 Y75.2499 
G01 X56.8862 Y75.4436 
G01 X56.8006 Y75.6503 
G01 X56.7427 Y75.8664 
G01 X56.7135 Y76.0881 
G01 X56.7135 Y76.3119 
G01 X56.7427 Y76.5336 
G01 X56.7970 Y76.7364 
G01 X43.7500 Y63.6893 
G01 X43.7500 Y60.4261 
G01 X43.7213 Y60.2820 
G00 Z3.0000 
G00 X39.7224 Y62.2300 
G01 Z-0.1500 F300.00 
G01 X39.6193 Y62.3049 F300.00 
G01 X39.4449 Y62.4793 
G01 X39.3700 Y62.5824 
G01 X39.2951 Y62.4793 
G01 X39.1207 Y62.3049 
G01 X39.0176 Y62.2300 
G01 X39.1207 Y62.1551 
G01 X39.2951 Y61.9807 
G01 X39.3700 Y61.8776 
G01 X39.4449 Y61.9807 
G01 X39.6193 Y62.1551 
G01 X39.7224 Y62.2300 
G00 Z3.0000 
G00 X27.0224 Y62.2300 
G01 Z-0.1500 F300.00 
G01 X26.9193 Y62.3049 F300.00 
G01 X26.7449 Y62.4793 
G01 X26.6000 Y62.6788 
G01 X26.4880 Y62.8986 
G01 X26.4118 Y63.1331 
G01 X26.3732 Y63.3767 
G01 X26.3732 Y63.6233 
G01 X26.4088 Y63.8482 
G01 X18.7500 Y56.1893 
G01 X18.7500 Y53.3107 
G01 X26.3732 Y60.9339 
G01 X26.3732 Y61.0833 
G01 X26.4118 Y61.3269 
G01 X26.4880 Y61.5614 
G01 X26.6000 Y61.7812 
G01 X26.7449 Y61.9807 
G01 X26.9193 Y62.1551 
G01 X27.0224 Y62.2300 
G00 Z3.0000 
G00 X16.1664 Y70.1539 
G01 Z-0.1500 F300.00 
G01 X16.1225 Y70.1189 F300.00 
G01 X16.0749 Y70.0890 
G01 X16.0243 Y70.0647 
G01 X15.9713 Y70.0461 
G01 X15.9165 Y70.0336 
G01 X15.8607 Y70.0273 
G01 X3.7832 Y70.0273 
G01 X3.7274 Y70.0336 
G01 X3.6727 Y70.0461 
G01 X3.6197 Y70.0647 
G01 X3.5691 Y70.0890 
G01 X3.5215 Y70.1189 
G01 X3.4776 Y70.1539 
G01 X3.4379 Y70.1936 
G01 X3.4029 Y70.2375 
G01 X3.3730 Y70.2851 
G01 X3.3487 Y70.3357 
G01 X3.3301 Y70.3887 
G01 X3.3176 Y70.4434 
G01 X3.3113 Y70.4993 
G01 X3.3113 Y73.5187 
G01 X3.3176 Y73.5746 
G01 X3.3301 Y73.6293 
G01 X3.3487 Y73.6823 
G01 X3.3730 Y73.7329 
G01 X3.4029 Y73.7805 
G01 X3.4379 Y73.8244 
G01 X3.4776 Y73.8641 
G01 X3.5215 Y73.8991 
G01 X3.5691 Y73.9290 
G01 X3.6197 Y73.9533 
G01 X3.6727 Y73.9719 
G01 X3.7274 Y73.9844 
G01 X3.7832 Y73.9907 
G01 X15.8607 Y73.9907 
G01 X15.9165 Y73.9844 
G01 X15.9713 Y73.9719 
G01 X16.0243 Y73.9533 
G01 X16.0749 Y73.9290 
G01 X16.1225 Y73.8991 
G01 X16.1664 Y73.8641 
G01 X16.2061 Y73.8244 
G01 X16.2411 Y73.7805 
G01 X16.2710 Y73.7329 
G01 X16.2953 Y73.6823 
G01 X16.3139 Y73.6293 
G01 X16.3264 Y73.5746 
G01 X16.3327 Y73.5187 
G01 X16.3327 Y70.4993 
G01 X16.3264 Y70.4434 
G01 X16.3139 Y70.3887 
G01 X16.2953 Y70.3357 
G01 X16.2710 Y70.2851 
G01 X16.2411 Y70.2375 
G01 X16.2061 Y70.1936 
G01 X16.1664 Y70.1539 
G00 Z3.0000 
G00 X14.5675 Y54.0482 
G01 Z-0.1500 F300.00 
G01 X14.7078 Y53.8552 F300.00 
G01 X14.8161 Y53.6425 
G01 X14.8899 Y53.4156 
G01 X14.9272 Y53.1799 
G01 X14.9272 Y52.9413 
G01 X14.8899 Y52.7056 
G01 X14.8161 Y52.4787 
G01 X14.7078 Y52.2660 
G01 X14.5675 Y52.0730 
G01 X14.3988 Y51.9043 
G01 X14.2058 Y51.7640 
G01 X13.9931 Y51.6557 
G01 X13.7662 Y51.5819 
G01 X13.5305 Y51.5446 
G01 X13.2919 Y51.5446 
G01 X13.0562 Y51.5819 
G01 X12.8293 Y51.6557 
G01 X12.6166 Y51.7640 
G01 X12.4236 Y51.9043 
G01 X12.2549 Y52.0730 
G01 X12.1146 Y52.2660 
G01 X12.0063 Y52.4787 
G01 X11.9325 Y52.7056 
G01 X11.8952 Y52.9413 
G01 X11.8952 Y53.1799 
G01 X11.9325 Y53.4156 
G01 X12.0063 Y53.6425 
G01 X12.1146 Y53.8552 
G01 X12.2549 Y54.0482 
G01 X12.4236 Y54.2169 
G01 X12.6166 Y54.3572 
G01 X12.8293 Y54.4655 
G01 X13.0562 Y54.5393 
G01 X13.2919 Y54.5766 
G01 X13.5305 Y54.5766 
G01 X13.7662 Y54.5393 
G01 X13.9931 Y54.4655 
G01 X14.2058 Y54.3572 
G01 X14.3988 Y54.2169 
G01 X14.5675 Y54.0482 
G00 Z3.0000 
G00 X14.5675 Y49.5270 
G01 Z-0.1500 F300.00 
G01 X14.7078 Y49.3340 F300.00 
G01 X14.8161 Y49.1213 
G01 X14.8899 Y48.8944 
G01 X14.9272 Y48.6587 
G01 X14.9272 Y48.4201 
G01 X14.8899 Y48.1844 
G01 X14.8161 Y47.9575 
G01 X14.7078 Y47.7448 
G01 X14.5675 Y47.5518 
G01 X14.3988 Y47.3831 
G01 X14.2058 Y47.2428 
G01 X13.9931 Y47.1345 
G01 X13.7662 Y47.0607 
G01 X13.5305 Y47.0234 
G01 X13.2919 Y47.0234 
G01 X13.0562 Y47.0607 
G01 X12.8293 Y47.1345 
G01 X12.6166 Y47.2428 
G01 X12.4236 Y47.3831 
G01 X12.2549 Y47.5518 
G01 X12.1146 Y47.7448 
G01 X12.0063 Y47.9575 
G01 X11.9325 Y48.1844 
G01 X11.8952 Y48.4201 
G01 X11.8952 Y48.6587 
G01 X11.9325 Y48.8944 
G01 X12.0063 Y49.1213 
G01 X12.1146 Y49.3340 
G01 X12.2549 Y49.5270 
G01 X12.4236 Y49.6957 
G01 X12.6166 Y49.8360 
G01 X12.8293 Y49.9443 
G01 X13.0562 Y50.0181 
G01 X13.2919 Y50.0554 
G01 X13.5305 Y50.0554 
G01 X13.7662 Y50.0181 
G01 X13.9931 Y49.9443 
G01 X14.2058 Y49.8360 
G01 X14.3988 Y49.6957 
G01 X14.5675 Y49.5270 
G00 Z3.0000 
G00 X14.5675 Y43.8882 
G01 Z-0.1500 F300.00 
G01 X14.7078 Y43.6952 F300.00 
G01 X14.8161 Y43.4825 
G01 X14.8899 Y43.2556 
G01 X14.9272 Y43.0199 
G01 X14.9272 Y42.7813 
G01 X14.8899 Y42.5456 
G01 X14.8161 Y42.3187 
G01 X14.7078 Y42.1060 
G01 X14.5675 Y41.9130 
G01 X14.3988 Y41.7443 
G01 X14.2058 Y41.6040 
G01 X13.9931 Y41.4957 
G01 X13.7662 Y41.4219 
G01 X13.5305 Y41.3846 
G01 X13.2919 Y41.3846 
G01 X13.0562 Y41.4219 
G01 X12.8293 Y41.4957 
G01 X12.6166 Y41.6040 
G01 X12.4236 Y41.7443 
G01 X12.2549 Y41.9130 
G01 X12.1146 Y42.1060 
G01 X12.0063 Y42.3187 
G01 X11.9325 Y42.5456 
G01 X11.8952 Y42.7813 
G01 X11.8952 Y43.0199 
G01 X11.9325 Y43.2556 
G01 X12.0063 Y43.4825 
G01 X12.1146 Y43.6952 
G01 X12.2549 Y43.8882 
G01 X12.4236 Y44.0569 
G01 X12.6166 Y44.1972 
G01 X12.8293 Y44.3055 
G01 X13.0562 Y44.3793 
G01 X13.2919 Y44.4166 
G01 X13.5305 Y44.4166 
G01 X13.7662 Y44.3793 
G01 X13.9931 Y44.3055 
G01 X14.2058 Y44.1972 
G01 X14.3988 Y44.0569 
G01 X14.5675 Y43.8882 
G00 Z3.0000 
G00 X8.0651 Y43.8882 
G01 Z-0.1500 F300.00 
G01 X8.2054 Y43.6952 F300.00 
G01 X8.3137 Y43.4825 
G01 X8.3875 Y43.2556 
G01 X8.4248 Y43.0199 
G01 X8.4248 Y42.7813 
G01 X8.3875 Y42.5456 
G01 X8.3137 Y42.3187 
G01 X8.2054 Y42.1060 
G01 X8.0651 Y41.9130 
G01 X7.8964 Y41.7443 
G01 X7.7034 Y41.6040 
G01 X7.4907 Y41.4957 
G01 X7.2638 Y41.4219 
G01 X7.0281 Y41.3846 
G01 X6.7895 Y41.3846 
G01 X6.5538 Y41.4219 
G01 X6.3269 Y41.4957 
G01 X6.1142 Y41.6040 
G01 X5.9212 Y41.7443 
G01 X5.7525 Y41.9130 
G01 X5.6122 Y42.1060 
G01 X5.5039 Y42.3187 
G01 X5.4301 Y42.5456 
G01 X5.3928 Y42.7813 
G01 X5.3928 Y43.0199 
G01 X5.4301 Y43.2556 
G01 X5.5039 Y43.4825 
G01 X5.6122 Y43.6952 
G01 X5.7525 Y43.8882 
G01 X5.9212 Y44.0569 
G01 X6.1142 Y44.1972 
G01 X6.3269 Y44.3055 
G01 X6.5538 Y44.3793 
G01 X6.7895 Y44.4166 
G01 X7.0281 Y44.4166 
G01 X7.2638 Y44.3793 
G01 X7.4907 Y44.3055 
G01 X7.7034 Y44.1972 
G01 X7.8964 Y44.0569 
G01 X8.0651 Y43.8882 
G00 Z3.0000 
G00 X7.8964 Y47.3831 
G01 Z-0.1500 F300.00 
G01 X7.7034 Y47.2428 F300.00 
G01 X7.4907 Y47.1345 
G01 X7.2638 Y47.0607 
G01 X7.0281 Y47.0234 
G01 X6.7895 Y47.0234 
G01 X6.5538 Y47.0607 
G01 X6.3269 Y47.1345 
G01 X6.1142 Y47.2428 
G01 X5.9212 Y47.3831 
G01 X5.7525 Y47.5518 
G01 X5.6122 Y47.7448 
G01 X5.5039 Y47.9575 
G01 X5.4301 Y48.1844 
G01 X5.3928 Y48.4201 
G01 X5.3928 Y48.6587 
G01 X5.4301 Y48.8944 
G01 X5.5039 Y49.1213 
G01 X5.6122 Y49.3340 
G01 X5.7525 Y49.5270 
G01 X5.9212 Y49.6957 
G01 X6.1142 Y49.8360 
G01 X6.3269 Y49.9443 
G01 X6.5538 Y50.0181 
G01 X6.7895 Y50.0554 
G01 X7.0281 Y50.0554 
G01 X7.2638 Y50.0181 
G01 X7.4907 Y49.9443 
G01 X7.7034 Y49.8360 
G01 X7.8964 Y49.6957 
G01 X8.0651 Y49.5270 
G01 X8.2054 Y49.3340 
G01 X8.3137 Y49.1213 
G01 X8.3875 Y48.8944 
G01 X8.4248 Y48.6587 
G01 X8.4248 Y48.4201 
G01 X8.3875 Y48.1844 
G01 X8.3137 Y47.9575 
G01 X8.2054 Y47.7448 
G01 X8.0651 Y47.5518 
G01 X7.8964 Y47.3831 
G00 Z3.0000 
G00 X7.8964 Y51.9043 
G01 Z-0.1500 F300.00 
G01 X7.7034 Y51.7640 F300.00 
G01 X7.4907 Y51.6557 
G01 X7.2638 Y51.5819 
G01 X7.0281 Y51.5446 
G01 X6.7895 Y51.5446 
G01 X6.5538 Y51.5819 
G01 X6.3269 Y51.6557 
G01 X6.1142 Y51.7640 
G01 X5.9212 Y51.9043 
G01 X5.7525 Y52.0730 
G01 X5.6122 Y52.2660 
G01 X5.5039 Y52.4787 
G01 X5.4301 Y52.7056 
G01 X5.3928 Y52.9413 
G01 X5.3928 Y53.1799 
G01 X5.4301 Y53.4156 
G01 X5.5039 Y53.6425 
G01 X5.6122 Y53.8552 
G01 X5.7525 Y54.0482 
G01 X5.9212 Y54.2169 
G01 X6.1142 Y54.3572 
G01 X6.3269 Y54.4655 
G01 X6.5538 Y54.5393 
G01 X6.7895 Y54.5766 
G01 X7.0281 Y54.5766 
G01 X7.2638 Y54.5393 
G01 X7.4907 Y54.4655 
G01 X7.7034 Y54.3572 
G01 X7.8964 Y54.2169 
G01 X8.0651 Y54.0482 
G01 X8.2054 Y53.8552 
G01 X8.3137 Y53.6425 
G01 X8.3875 Y53.4156 
G01 X8.4248 Y53.1799 
G01 X8.4248 Y52.9413 
G01 X8.3875 Y52.7056 
G01 X8.3137 Y52.4787 
G01 X8.2054 Y52.2660 
G01 X8.0651 Y52.0730 
G01 X7.8964 Y51.9043 
G00 Z3.0000 
G00 X8.2500 Y32.0336 
G01 Z-0.1500 F300.00 
G01 X8.2054 Y31.9460 F300.00 
G01 X8.0651 Y31.7530 
G01 X7.8964 Y31.5843 
G01 X7.7034 Y31.4440 
G01 X7.4907 Y31.3357 
G01 X7.2638 Y31.2619 
G01 X7.0281 Y31.2246 
G01 X6.7895 Y31.2246 
G01 X6.5538 Y31.2619 
G01 X6.3793 Y31.3186 
G01 X5.7500 Y30.6893 
G01 X5.7500 Y29.2036 
G01 X5.7525 Y29.2070 
G01 X5.9212 Y29.3757 
G01 X6.1142 Y29.5160 
G01 X6.3269 Y29.6243 
G01 X6.5538 Y29.6981 
G01 X6.7895 Y29.7354 
G01 X7.0281 Y29.7354 
G01 X7.2638 Y29.6981 
G01 X7.4907 Y29.6243 
G01 X7.7034 Y29.5160 
G01 X7.8964 Y29.3757 
G01 X8.0651 Y29.2070 
G01 X8.2054 Y29.0140 
G01 X8.2500 Y28.9264 
G01 X8.2500 Y32.0336 
G00 Z3.0000 
G00 X36.4580 Y30.9813 
G01 Z-0.1500 F300.00 
G01 X36.4580 Y30.1027 F300.00 
G01 X48.0826 Y18.4781 
G01 X48.1646 Y18.3553 
G01 X48.2212 Y18.2188 
G01 X48.2500 Y18.0739 
G01 X48.2500 Y13.3107 
G01 X49.2931 Y12.2676 
G01 X49.2718 Y12.3331 
G01 X49.2332 Y12.5767 
G01 X49.2332 Y12.8233 
G01 X49.2718 Y13.0669 
G01 X49.3480 Y13.3014 
G01 X49.4600 Y13.5212 
G01 X49.6049 Y13.7207 
G01 X49.7793 Y13.8951 
G01 X49.8824 Y13.9700 
G01 X49.7793 Y14.0449 
G01 X49.6049 Y14.2193 
G01 X49.4600 Y14.4188 
G01 X49.3480 Y14.6386 
G01 X49.2718 Y14.8731 
G01 X49.2332 Y15.1167 
G01 X49.2332 Y15.3633 
G01 X49.2718 Y15.6069 
G01 X49.3480 Y15.8414 
G01 X49.4600 Y16.0612 
G01 X49.6049 Y16.2607 
G01 X49.7793 Y16.4351 
G01 X49.9788 Y16.5800 
G01 X50.1986 Y16.6920 
G01 X50.2500 Y16.7087 
G01 X50.2500 Y21.5528 
G01 X50.0587 Y21.6503 
G01 X49.8786 Y21.7812 
G01 X49.7212 Y21.9386 
G01 X49.5903 Y22.1187 
G01 X49.4892 Y22.3171 
G01 X49.4580 Y22.4132 
G01 X49.4580 Y21.3961 
G01 X48.6039 Y20.5420 
G01 X47.3961 Y20.5420 
G01 X46.6881 Y21.2500 
G01 X46.4261 Y21.2500 
G01 X46.2812 Y21.2788 
G01 X46.1447 Y21.3354 
G01 X46.0219 Y21.4174 
G01 X45.9174 Y21.5219 
G01 X36.4580 Y30.9813 
G00 Z3.0000 
G00 X35.1893 Y34.7500 
G01 Z-0.1500 F300.00 
G01 X34.9261 Y34.7500 F300.00 
G01 X34.7820 Y34.7787 
G01 X41.6640 Y27.8967 
G01 X41.6640 Y28.0593 
G01 X41.6935 Y28.2458 
G01 X35.1893 Y34.7500 
G00 Z3.0000 
G00 X36.0826 Y35.9781 
G01 Z-0.1500 F300.00 
G01 X41.6640 Y30.3967 F300.00 
G01 X41.6640 Y30.5993 
G01 X41.7013 Y30.8350 
G01 X41.7751 Y31.0619 
G01 X41.8834 Y31.2746 
G01 X42.0237 Y31.4676 
G01 X42.1924 Y31.6363 
G01 X42.3488 Y31.7500 
G01 X42.1924 Y31.8637 
G01 X42.0237 Y32.0324 
G01 X41.8834 Y32.2254 
G01 X41.7751 Y32.4381 
G01 X41.7013 Y32.6650 
G01 X41.6640 Y32.9007 
G01 X41.6640 Y33.1393 
G01 X41.7013 Y33.3750 
G01 X41.7751 Y33.6019 
G01 X41.8834 Y33.8146 
G01 X42.0237 Y34.0076 
G01 X42.1924 Y34.1763 
G01 X42.3488 Y34.2900 
G01 X42.1924 Y34.4037 
G01 X42.0237 Y34.5724 
G01 X41.8834 Y34.7654 
G01 X41.7751 Y34.9781 
G01 X41.7013 Y35.2050 
G01 X41.6640 Y35.4407 
G01 X41.6640 Y35.6793 
G01 X41.7013 Y35.9150 
G01 X41.7751 Y36.1419 
G01 X41.8834 Y36.3546 
G01 X42.0237 Y36.5476 
G01 X42.1924 Y36.7163 
G01 X42.3488 Y36.8300 
G01 X42.1924 Y36.9437 
G01 X42.0237 Y37.1124 
G01 X41.8834 Y37.3054 
G01 X41.7751 Y37.5181 
G01 X41.7013 Y37.7450 
G01 X41.6640 Y37.9807 
G01 X41.6640 Y38.2193 
G01 X41.7013 Y38.4550 
G01 X41.7751 Y38.6819 
G01 X41.8834 Y38.8946 
G01 X42.0237 Y39.0876 
G01 X42.1924 Y39.2563 
G01 X42.3488 Y39.3700 
G01 X42.1924 Y39.4837 
G01 X42.0237 Y39.6524 
G01 X41.8834 Y39.8454 
G01 X41.7751 Y40.0581 
G01 X41.7013 Y40.2850 
G01 X41.6640 Y40.5207 
G01 X41.6640 Y40.7500 
G01 X40.3107 Y40.7500 
G01 X40.2879 Y40.7272 
G01 X40.4418 Y40.7272 
G01 X40.6775 Y40.6899 
G01 X40.9044 Y40.6162 
G01 X41.1171 Y40.5078 
G01 X41.3101 Y40.3676 
G01 X41.4788 Y40.1989 
G01 X41.6191 Y40.0058 
G01 X41.7274 Y39.7932 
G01 X41.8012 Y39.5662 
G01 X41.8385 Y39.3306 
G01 X41.8385 Y39.0919 
G01 X41.8012 Y38.8563 
G01 X41.7274 Y38.6293 
G01 X41.6191 Y38.4167 
G01 X41.4788 Y38.2236 
G01 X41.3101 Y38.0549 
G01 X41.1537 Y37.9412 
G01 X41.3101 Y37.8276 
G01 X41.4788 Y37.6589 
G01 X41.6191 Y37.4658 
G01 X41.7274 Y37.2532 
G01 X41.8012 Y37.0262 
G01 X41.8385 Y36.7906 
G01 X41.8385 Y36.5519 
G01 X41.8012 Y36.3162 
G01 X41.7274 Y36.0893 
G01 X41.6191 Y35.8767 
G01 X41.4788 Y35.6836 
G01 X41.3101 Y35.5149 
G01 X41.1171 Y35.3747 
G01 X40.9044 Y35.2663 
G01 X40.6775 Y35.1926 
G01 X40.4418 Y35.1553 
G01 X40.2032 Y35.1553 
G01 X39.9675 Y35.1926 
G01 X39.7406 Y35.2663 
G01 X39.5279 Y35.3747 
G01 X39.3349 Y35.5149 
G01 X39.1662 Y35.6836 
G01 X39.0259 Y35.8767 
G01 X38.9176 Y36.0893 
G01 X38.8438 Y36.3162 
G01 X38.8065 Y36.5519 
G01 X38.8065 Y36.7906 
G01 X38.8438 Y37.0262 
G01 X38.9176 Y37.2532 
G01 X39.0259 Y37.4658 
G01 X39.1662 Y37.6589 
G01 X39.3349 Y37.8276 
G01 X39.4913 Y37.9412 
G01 X39.3349 Y38.0549 
G01 X39.1662 Y38.2236 
G01 X39.0259 Y38.4167 
G01 X38.9176 Y38.6293 
G01 X38.8438 Y38.8563 
G01 X38.8065 Y39.0919 
G01 X38.8065 Y39.2458 
G01 X37.4580 Y37.8973 
G01 X37.4580 Y36.8961 
G01 X36.6039 Y36.0420 
G01 X36.0187 Y36.0420 
G01 X36.0826 Y35.9781 
G00 Z3.0000 
G00 X44.6688 Y35.2689 
G01 Z-0.1500 F300.00 
G01 X44.6587 Y35.2050 F300.00 
G01 X44.5849 Y34.9781 
G01 X44.4766 Y34.7654 
G01 X44.3363 Y34.5724 
G01 X44.1676 Y34.4037 
G01 X44.0112 Y34.2900 
G01 X44.1676 Y34.1763 
G01 X44.3363 Y34.0076 
G01 X44.4766 Y33.8146 
G01 X44.5849 Y33.6019 
G01 X44.6587 Y33.3750 
G01 X44.6960 Y33.1393 
G01 X44.6960 Y32.9007 
G01 X44.6587 Y32.6650 
G01 X44.5849 Y32.4381 
G01 X44.4766 Y32.2254 
G01 X44.3363 Y32.0324 
G01 X44.1676 Y31.8637 
G01 X44.0112 Y31.7500 
G01 X44.1676 Y31.6363 
G01 X44.3363 Y31.4676 
G01 X44.4766 Y31.2746 
G01 X44.5849 Y31.0619 
G01 X44.6587 Y30.8350 
G01 X44.6960 Y30.5993 
G01 X44.6960 Y30.3647 
G01 X46.8680 Y28.1927 
G01 X46.8804 Y28.2712 
G01 X46.9492 Y28.4829 
G01 X47.0503 Y28.6813 
G01 X47.1812 Y28.8614 
G01 X47.3386 Y29.0188 
G01 X47.5187 Y29.1497 
G01 X47.7171 Y29.2508 
G01 X47.9288 Y29.3196 
G01 X48.1487 Y29.3544 
G01 X48.3713 Y29.3544 
G01 X48.5912 Y29.3196 
G01 X48.8029 Y29.2508 
G01 X49.0013 Y29.1497 
G01 X49.1814 Y29.0188 
G01 X49.3388 Y28.8614 
G01 X49.4697 Y28.6813 
G01 X49.5300 Y28.5630 
G01 X49.5903 Y28.6813 
G01 X49.7212 Y28.8614 
G01 X49.8786 Y29.0188 
G01 X50.0587 Y29.1497 
G01 X50.1770 Y29.2100 
G01 X50.0587 Y29.2703 
G01 X49.8786 Y29.4012 
G01 X49.7212 Y29.5586 
G01 X49.5903 Y29.7387 
G01 X49.4892 Y29.9371 
G01 X49.4204 Y30.1488 
G01 X49.3856 Y30.3687 
G01 X49.3856 Y30.5913 
G01 X49.4204 Y30.8112 
G01 X49.4892 Y31.0229 
G01 X49.5903 Y31.2213 
G01 X49.7212 Y31.4014 
G01 X49.8786 Y31.5588 
G01 X50.0587 Y31.6897 
G01 X50.2571 Y31.7908 
G01 X50.4688 Y31.8596 
G01 X50.6887 Y31.8944 
G01 X50.9113 Y31.8944 
G01 X51.1312 Y31.8596 
G01 X51.3429 Y31.7908 
G01 X51.5413 Y31.6897 
G01 X51.7214 Y31.5588 
G01 X51.8788 Y31.4014 
G01 X52.0097 Y31.2213 
G01 X52.1108 Y31.0229 
G01 X52.1796 Y30.8112 
G01 X52.2144 Y30.5913 
G01 X52.2144 Y30.3687 
G01 X52.1796 Y30.1488 
G01 X52.1108 Y29.9371 
G01 X52.0097 Y29.7387 
G01 X51.8788 Y29.5586 
G01 X51.7214 Y29.4012 
G01 X51.5413 Y29.2703 
G01 X51.4230 Y29.2100 
G01 X51.5413 Y29.1497 
G01 X51.7214 Y29.0188 
G01 X51.8788 Y28.8614 
G01 X52.0097 Y28.6813 
G01 X52.1108 Y28.4829 
G01 X52.1796 Y28.2712 
G01 X52.2144 Y28.0513 
G01 X52.2144 Y27.8287 
G01 X52.1796 Y27.6088 
G01 X52.1108 Y27.3971 
G01 X52.0097 Y27.1987 
G01 X51.8788 Y27.0186 
G01 X51.7214 Y26.8612 
G01 X51.5413 Y26.7303 
G01 X51.4230 Y26.6700 
G01 X51.5413 Y26.6097 
G01 X51.7214 Y26.4788 
G01 X51.8788 Y26.3214 
G01 X52.0097 Y26.1413 
G01 X52.1108 Y25.9429 
G01 X52.1796 Y25.7312 
G01 X52.2144 Y25.5113 
G01 X52.2144 Y25.3463 
G01 X53.5826 Y23.9781 
G01 X53.6646 Y23.8553 
G01 X53.7212 Y23.7188 
G01 X53.7500 Y23.5739 
G01 X53.7500 Y9.3107 
G01 X56.8120 Y6.2486 
G01 X56.8120 Y6.4766 
G01 X56.8516 Y6.7265 
G01 X56.9298 Y6.9673 
G01 X57.0447 Y7.1928 
G01 X57.1297 Y7.3097 
G01 X54.5219 Y9.9174 
G01 X54.4174 Y10.0219 
G01 X54.3354 Y10.1447 
G01 X54.2788 Y10.2812 
G01 X54.2500 Y10.4261 
G01 X54.2500 Y18.0739 
G01 X54.2788 Y18.2188 
G01 X54.3354 Y18.3553 
G01 X54.4174 Y18.4781 
G01 X54.5420 Y18.6027 
G01 X54.5420 Y19.6039 
G01 X55.3961 Y20.4580 
G01 X56.6039 Y20.4580 
G01 X57.2500 Y19.8119 
G01 X57.2500 Y21.0739 
G01 X57.2788 Y21.2188 
G01 X57.3354 Y21.3553 
G01 X57.4116 Y21.4694 
G01 X57.2613 Y21.4456 
G01 X57.0387 Y21.4456 
G01 X56.8188 Y21.4804 
G01 X56.6071 Y21.5492 
G01 X56.4087 Y21.6503 
G01 X56.2286 Y21.7812 
G01 X56.0712 Y21.9386 
G01 X55.9403 Y22.1187 
G01 X55.8392 Y22.3171 
G01 X55.7704 Y22.5288 
G01 X55.7356 Y22.7487 
G01 X55.7356 Y22.9713 
G01 X55.7704 Y23.1912 
G01 X55.8392 Y23.4029 
G01 X55.9403 Y23.6013 
G01 X56.0712 Y23.7814 
G01 X56.2286 Y23.9388 
G01 X56.4087 Y24.0697 
G01 X56.5270 Y24.1300 
G01 X56.4087 Y24.1903 
G01 X56.2286 Y24.3212 
G01 X56.0712 Y24.4786 
G01 X55.9403 Y24.6587 
G01 X55.8392 Y24.8571 
G01 X55.7704 Y25.0688 
G01 X55.7356 Y25.2887 
G01 X55.7356 Y25.5113 
G01 X55.7704 Y25.7312 
G01 X55.8392 Y25.9429 
G01 X55.9403 Y26.1413 
G01 X56.0712 Y26.3214 
G01 X56.2286 Y26.4788 
G01 X56.4087 Y26.6097 
G01 X56.5270 Y26.6700 
G01 X56.4087 Y26.7303 
G01 X56.2286 Y26.8612 
G01 X56.0712 Y27.0186 
G01 X55.9403 Y27.1987 
G01 X55.8800 Y27.3170 
G01 X55.8197 Y27.1987 
G01 X55.6888 Y27.0186 
G01 X55.5314 Y26.8612 
G01 X55.3513 Y26.7303 
G01 X55.1529 Y26.6292 
G01 X54.9412 Y26.5604 
G01 X54.7213 Y26.5256 
G01 X54.4987 Y26.5256 
G01 X54.2788 Y26.5604 
G01 X54.0671 Y26.6292 
G01 X53.8687 Y26.7303 
G01 X53.6886 Y26.8612 
G01 X53.5312 Y27.0186 
G01 X53.4003 Y27.1987 
G01 X53.2992 Y27.3971 
G01 X53.2304 Y27.6088 
G01 X53.1956 Y27.8287 
G01 X53.1956 Y28.0513 
G01 X53.2304 Y28.2712 
G01 X53.2992 Y28.4829 
G01 X53.4003 Y28.6813 
G01 X53.5312 Y28.8614 
G01 X53.6886 Y29.0188 
G01 X53.8687 Y29.1497 
G01 X54.0671 Y29.2508 
G01 X54.2788 Y29.3196 
G01 X54.4987 Y29.3544 
G01 X54.7213 Y29.3544 
G01 X54.9412 Y29.3196 
G01 X55.1529 Y29.2508 
G01 X55.3513 Y29.1497 
G01 X55.5314 Y29.0188 
G01 X55.6888 Y28.8614 
G01 X55.8197 Y28.6813 
G01 X55.8800 Y28.5630 
G01 X55.9403 Y28.6813 
G01 X56.0712 Y28.8614 
G01 X56.2286 Y29.0188 
G01 X56.4087 Y29.1497 
G01 X56.5270 Y29.2100 
G01 X56.4087 Y29.2703 
G01 X56.2286 Y29.4012 
G01 X56.0712 Y29.5586 
G01 X55.9403 Y29.7387 
G01 X55.8392 Y29.9371 
G01 X55.7704 Y30.1488 
G01 X55.7356 Y30.3687 
G01 X55.7356 Y30.5913 
G01 X55.7704 Y30.8112 
G01 X55.8392 Y31.0229 
G01 X55.9403 Y31.2213 
G01 X56.0712 Y31.4014 
G01 X56.2286 Y31.5588 
G01 X56.4087 Y31.6897 
G01 X56.6071 Y31.7908 
G01 X56.8188 Y31.8596 
G01 X57.0387 Y31.8944 
G01 X57.2613 Y31.8944 
G01 X57.4812 Y31.8596 
G01 X57.6272 Y31.8121 
G01 X57.1893 Y32.2500 
G01 X55.7989 Y32.2500 
G01 X55.6888 Y32.0986 
G01 X55.5314 Y31.9412 
G01 X55.3513 Y31.8103 
G01 X55.1529 Y31.7092 
G01 X54.9412 Y31.6404 
G01 X54.7213 Y31.6056 
G01 X54.4987 Y31.6056 
G01 X54.2788 Y31.6404 
G01 X54.0671 Y31.7092 
G01 X53.8687 Y31.8103 
G01 X53.6886 Y31.9412 
G01 X53.5312 Y32.0986 
G01 X53.4003 Y32.2787 
G01 X53.2992 Y32.4771 
G01 X53.2304 Y32.6888 
G01 X53.1956 Y32.9087 
G01 X53.1956 Y33.1313 
G01 X53.2304 Y33.3512 
G01 X53.2992 Y33.5629 
G01 X53.4003 Y33.7613 
G01 X53.5312 Y33.9414 
G01 X53.6886 Y34.0988 
G01 X53.8687 Y34.2297 
G01 X54.0671 Y34.3308 
G01 X54.2788 Y34.3996 
G01 X54.4987 Y34.4344 
G01 X54.7213 Y34.4344 
G01 X54.9412 Y34.3996 
G01 X55.1529 Y34.3308 
G01 X55.3513 Y34.2297 
G01 X55.5314 Y34.0988 
G01 X55.6888 Y33.9414 
G01 X55.8197 Y33.7613 
G01 X55.8255 Y33.7500 
G01 X57.5739 Y33.7500 
G01 X57.7188 Y33.7212 
G01 X57.8553 Y33.6646 
G01 X57.9781 Y33.5826 
G01 X68.1027 Y23.4580 
G01 X69.1039 Y23.4580 
G01 X69.9580 Y22.6039 
G01 X69.9580 Y21.3961 
G01 X69.2643 Y20.7023 
G01 X69.3553 Y20.6646 
G01 X69.4781 Y20.5826 
G01 X75.7494 Y14.3113 
G01 X76.3961 Y14.9580 
G01 X77.6039 Y14.9580 
G01 X78.2500 Y14.3119 
G01 X78.2500 Y20.0739 
G01 X78.2788 Y20.2188 
G01 X78.3354 Y20.3553 
G01 X78.4174 Y20.4781 
G01 X78.5219 Y20.5826 
G01 X88.7500 Y30.8107 
G01 X88.7500 Y32.1881 
G01 X88.0420 Y32.8961 
G01 X88.0420 Y34.1039 
G01 X88.8961 Y34.9580 
G01 X90.1039 Y34.9580 
G01 X90.9580 Y34.1039 
G01 X90.9580 Y32.8961 
G01 X90.2500 Y32.1881 
G01 X90.2500 Y30.4261 
G01 X90.2212 Y30.2812 
G01 X90.1646 Y30.1447 
G01 X90.0826 Y30.0219 
G01 X90.0425 Y29.9818 
G01 X90.0587 Y29.9844 
G01 X90.2813 Y29.9844 
G01 X90.5012 Y29.9496 
G01 X90.7129 Y29.8808 
G01 X90.9113 Y29.7797 
G01 X91.0914 Y29.6488 
G01 X91.2488 Y29.4914 
G01 X91.3797 Y29.3113 
G01 X91.4808 Y29.1129 
G01 X91.5496 Y28.9012 
G01 X91.5844 Y28.6813 
G01 X91.5844 Y28.4587 
G01 X91.5496 Y28.2388 
G01 X91.4877 Y28.0483 
G01 X92.7500 Y29.3107 
G01 X92.7500 Y38.1855 
G01 X92.6497 Y37.9887 
G01 X92.5188 Y37.8086 
G01 X92.3614 Y37.6512 
G01 X92.1813 Y37.5203 
G01 X91.9829 Y37.4192 
G01 X91.7712 Y37.3504 
G01 X91.5513 Y37.3156 
G01 X91.3287 Y37.3156 
G01 X91.1088 Y37.3504 
G01 X90.8971 Y37.4192 
G01 X90.6987 Y37.5203 
G01 X90.5186 Y37.6512 
G01 X90.3612 Y37.8086 
G01 X90.2303 Y37.9887 
G01 X90.1292 Y38.1871 
G01 X90.0604 Y38.3988 
G01 X90.0256 Y38.6187 
G01 X90.0256 Y38.8413 
G01 X90.0355 Y38.9038 
G01 X89.0219 Y39.9174 
G01 X88.9174 Y40.0219 
G01 X88.8354 Y40.1447 
G01 X88.7788 Y40.2812 
G01 X88.7500 Y40.4261 
G01 X88.7500 Y46.6893 
G01 X80.1893 Y55.2500 
G01 X62.8107 Y55.2500 
G01 X56.4580 Y48.8973 
G01 X56.4580 Y47.8961 
G01 X55.6039 Y47.0420 
G01 X54.3961 Y47.0420 
G01 X53.5420 Y47.8961 
G01 X53.5420 Y49.1039 
G01 X54.3961 Y49.9580 
G01 X55.3973 Y49.9580 
G01 X55.6893 Y50.2500 
G01 X50.8119 Y50.2500 
G01 X50.1039 Y49.5420 
G01 X48.8961 Y49.5420 
G01 X48.2500 Y50.1881 
G01 X48.2500 Y39.3107 
G01 X50.6003 Y36.9604 
G01 X50.6887 Y36.9744 
G01 X50.9113 Y36.9744 
G01 X51.1312 Y36.9396 
G01 X51.3429 Y36.8708 
G01 X51.5413 Y36.7697 
G01 X51.7214 Y36.6388 
G01 X51.8788 Y36.4814 
G01 X52.0097 Y36.3013 
G01 X52.1108 Y36.1029 
G01 X52.1796 Y35.8912 
G01 X52.2144 Y35.6713 
G01 X52.2144 Y35.4487 
G01 X52.1796 Y35.2288 
G01 X52.1108 Y35.0171 
G01 X52.0097 Y34.8187 
G01 X51.8788 Y34.6386 
G01 X51.7214 Y34.4812 
G01 X51.5413 Y34.3503 
G01 X51.3429 Y34.2492 
G01 X51.1312 Y34.1804 
G01 X50.9113 Y34.1456 
G01 X50.6887 Y34.1456 
G01 X50.4688 Y34.1804 
G01 X50.2571 Y34.2492 
G01 X50.0587 Y34.3503 
G01 X49.8786 Y34.4812 
G01 X49.7212 Y34.6386 
G01 X49.5903 Y34.8187 
G01 X49.4892 Y35.0171 
G01 X49.4204 Y35.2288 
G01 X49.3856 Y35.4487 
G01 X49.3856 Y35.6713 
G01 X49.4204 Y35.8912 
G01 X49.4517 Y35.9876 
G01 X47.5000 Y37.9393 
G01 X45.0826 Y35.5219 
G01 X44.9781 Y35.4174 
G01 X44.8553 Y35.3354 
G01 X44.7188 Y35.2788 
G01 X44.6688 Y35.2689 
G00 Z3.0000 
G00 X47.3386 Y34.0988 
G01 Z-0.1500 F300.00 
G01 X47.5187 Y34.2297 F300.00 
G01 X47.7171 Y34.3308 
G01 X47.9288 Y34.3996 
G01 X48.1487 Y34.4344 
G01 X48.3713 Y34.4344 
G01 X48.5912 Y34.3996 
G01 X48.8029 Y34.3308 
G01 X49.0013 Y34.2297 
G01 X49.1814 Y34.0988 
G01 X49.3388 Y33.9414 
G01 X49.4697 Y33.7613 
G01 X49.5708 Y33.5629 
G01 X49.6396 Y33.3512 
G01 X49.6744 Y33.1313 
G01 X49.6744 Y32.9087 
G01 X49.6396 Y32.6888 
G01 X49.5708 Y32.4771 
G01 X49.4697 Y32.2787 
G01 X49.3388 Y32.0986 
G01 X49.1814 Y31.9412 
G01 X49.0013 Y31.8103 
G01 X48.8029 Y31.7092 
G01 X48.5912 Y31.6404 
G01 X48.3713 Y31.6056 
G01 X48.1487 Y31.6056 
G01 X47.9288 Y31.6404 
G01 X47.7171 Y31.7092 
G01 X47.5187 Y31.8103 
G01 X47.3386 Y31.9412 
G01 X47.1812 Y32.0986 
G01 X47.0503 Y32.2787 
G01 X46.9492 Y32.4771 
G01 X46.8804 Y32.6888 
G01 X46.8456 Y32.9087 
G01 X46.8456 Y33.1313 
G01 X46.8804 Y33.3512 
G01 X46.9492 Y33.5629 
G01 X47.0503 Y33.7613 
G01 X47.1812 Y33.9414 
G01 X47.3386 Y34.0988 
G00 Z3.0000 
G00 X48.0137 Y26.5470 
G01 Z-0.1500 F300.00 
G01 X49.4070 Y25.1537 F300.00 
G01 X49.3856 Y25.2887 
G01 X49.3856 Y25.5113 
G01 X49.4204 Y25.7312 
G01 X49.4892 Y25.9429 
G01 X49.5903 Y26.1413 
G01 X49.7212 Y26.3214 
G01 X49.8786 Y26.4788 
G01 X50.0587 Y26.6097 
G01 X50.1770 Y26.6700 
G01 X50.0587 Y26.7303 
G01 X49.8786 Y26.8612 
G01 X49.7212 Y27.0186 
G01 X49.5903 Y27.1987 
G01 X49.5300 Y27.3170 
G01 X49.4697 Y27.1987 
G01 X49.3388 Y27.0186 
G01 X49.1814 Y26.8612 
G01 X49.0013 Y26.7303 
G01 X48.8029 Y26.6292 
G01 X48.5912 Y26.5604 
G01 X48.3713 Y26.5256 
G01 X48.1487 Y26.5256 
G01 X48.0137 Y26.5470 
G00 Z3.0000 
G00 X45.9174 Y26.5219 
G01 Z-0.1500 F300.00 
G01 X45.8354 Y26.6447 F300.00 
G01 X45.7788 Y26.7812 
G01 X45.7500 Y26.9261 
G01 X45.7500 Y27.1893 
G01 X44.6614 Y28.2780 
G01 X44.6960 Y28.0593 
G01 X44.6960 Y27.8207 
G01 X44.6587 Y27.5850 
G01 X44.5849 Y27.3581 
G01 X44.4766 Y27.1454 
G01 X44.3363 Y26.9524 
G01 X44.1676 Y26.7837 
G01 X43.9746 Y26.6434 
G01 X43.7619 Y26.5351 
G01 X43.5350 Y26.4613 
G01 X43.2993 Y26.4240 
G01 X43.1367 Y26.4240 
G01 X46.7494 Y22.8113 
G01 X47.3961 Y23.4580 
G01 X48.6039 Y23.4580 
G01 X49.3992 Y22.6627 
G01 X49.3856 Y22.7487 
G01 X49.3856 Y22.9713 
G01 X49.3969 Y23.0425 
G01 X45.9174 Y26.5219 
G00 Z3.0000 
G00 X52.1466 Y23.2928 
G01 Z-0.1500 F300.00 
G01 X52.1796 Y23.1912 F300.00 
G01 X52.2144 Y22.9713 
G01 X52.2144 Y22.7487 
G01 X52.1796 Y22.5288 
G01 X52.1108 Y22.3171 
G01 X52.0097 Y22.1187 
G01 X51.8788 Y21.9386 
G01 X51.7500 Y21.8097 
G01 X51.7500 Y16.4865 
G01 X51.8207 Y16.4351 
G01 X51.9951 Y16.2607 
G01 X52.1400 Y16.0612 
G01 X52.2500 Y15.8454 
G01 X52.2500 Y23.1893 
G01 X52.1466 Y23.2928 
G00 Z3.0000 
G00 X59.7500 Y23.5739 
G01 Z-0.1500 F300.00 
G01 X59.7500 Y21.9261 F300.00 
G01 X59.7212 Y21.7812 
G01 X59.6646 Y21.6447 
G01 X59.5826 Y21.5219 
G01 X59.4781 Y21.4174 
G01 X58.7500 Y20.6893 
G01 X58.7500 Y19.3106 
G01 X59.4708 Y20.0315 
G01 X59.4440 Y20.2007 
G01 X59.4440 Y20.4393 
G01 X59.4813 Y20.6750 
G01 X59.5551 Y20.9019 
G01 X59.6634 Y21.1146 
G01 X59.8037 Y21.3076 
G01 X59.9724 Y21.4763 
G01 X60.1654 Y21.6166 
G01 X60.3781 Y21.7249 
G01 X60.6050 Y21.7987 
G01 X60.8407 Y21.8360 
G01 X61.0793 Y21.8360 
G01 X61.3150 Y21.7987 
G01 X61.5419 Y21.7249 
G01 X61.7546 Y21.6166 
G01 X61.9476 Y21.4763 
G01 X62.1163 Y21.3076 
G01 X62.2300 Y21.1512 
G01 X62.3437 Y21.3076 
G01 X62.5124 Y21.4763 
G01 X62.7054 Y21.6166 
G01 X62.9181 Y21.7249 
G01 X63.1450 Y21.7987 
G01 X63.3807 Y21.8360 
G01 X63.6193 Y21.8360 
G01 X63.8550 Y21.7987 
G01 X64.0819 Y21.7249 
G01 X64.2946 Y21.6166 
G01 X64.4876 Y21.4763 
G01 X64.6563 Y21.3076 
G01 X64.7966 Y21.1146 
G01 X64.9049 Y20.9019 
G01 X64.9543 Y20.7500 
G01 X67.6881 Y20.7500 
G01 X67.0420 Y21.3961 
G01 X67.0420 Y22.3973 
G01 X58.4821 Y30.9572 
G01 X58.5296 Y30.8112 
G01 X58.5644 Y30.5913 
G01 X58.5644 Y30.3687 
G01 X58.5296 Y30.1488 
G01 X58.4608 Y29.9371 
G01 X58.3597 Y29.7387 
G01 X58.2288 Y29.5586 
G01 X58.0714 Y29.4012 
G01 X57.8913 Y29.2703 
G01 X57.7730 Y29.2100 
G01 X57.8913 Y29.1497 
G01 X58.0714 Y29.0188 
G01 X58.2288 Y28.8614 
G01 X58.3597 Y28.6813 
G01 X58.4608 Y28.4829 
G01 X58.5296 Y28.2712 
G01 X58.5644 Y28.0513 
G01 X58.5644 Y27.8287 
G01 X58.5296 Y27.6088 
G01 X58.4608 Y27.3971 
G01 X58.3597 Y27.1987 
G01 X58.2288 Y27.0186 
G01 X58.0714 Y26.8612 
G01 X57.8913 Y26.7303 
G01 X57.7730 Y26.6700 
G01 X57.8913 Y26.6097 
G01 X58.0714 Y26.4788 
G01 X58.2288 Y26.3214 
G01 X58.3597 Y26.1413 
G01 X58.4608 Y25.9429 
G01 X58.5296 Y25.7312 
G01 X58.5644 Y25.5113 
G01 X58.5644 Y25.2887 
G01 X58.5296 Y25.0688 
G01 X58.5203 Y25.0403 
G01 X59.5826 Y23.9781 
G01 X59.6646 Y23.8553 
G01 X59.7212 Y23.7188 
G01 X59.7500 Y23.5739 
G00 Z3.0000 
G00 X61.7912 Y19.0500 
G01 Z-0.1500 F300.00 
G01 X61.9476 Y18.9363 F300.00 
G01 X62.1163 Y18.7676 
G01 X62.2300 Y18.6112 
G01 X62.3437 Y18.7676 
G01 X62.5124 Y18.9363 
G01 X62.6688 Y19.0500 
G01 X62.5124 Y19.1637 
G01 X62.3437 Y19.3324 
G01 X62.2300 Y19.4888 
G01 X62.1163 Y19.3324 
G01 X61.9476 Y19.1637 
G01 X61.7912 Y19.0500 
G00 Z3.0000 
G00 X64.3312 Y19.0500 
G01 Z-0.1500 F300.00 
G01 X64.4876 Y18.9363 F300.00 
G01 X64.6563 Y18.7676 
G01 X64.7966 Y18.5746 
G01 X64.9049 Y18.3619 
G01 X64.9787 Y18.1350 
G01 X65.0160 Y17.8993 
G01 X65.0160 Y17.6607 
G01 X64.9787 Y17.4250 
G01 X64.9049 Y17.1981 
G01 X64.7966 Y16.9854 
G01 X64.6563 Y16.7924 
G01 X64.4876 Y16.6237 
G01 X64.2946 Y16.4834 
G01 X64.0819 Y16.3751 
G01 X63.8550 Y16.3013 
G01 X63.6193 Y16.2640 
G01 X63.3807 Y16.2640 
G01 X63.1450 Y16.3013 
G01 X62.9181 Y16.3751 
G01 X62.7054 Y16.4834 
G01 X62.5124 Y16.6237 
G01 X62.3437 Y16.7924 
G01 X62.2300 Y16.9488 
G01 X62.1163 Y16.7924 
G01 X61.9476 Y16.6237 
G01 X61.7546 Y16.4834 
G01 X61.5419 Y16.3751 
G01 X61.3150 Y16.3013 
G01 X61.0793 Y16.2640 
G01 X60.8407 Y16.2640 
G01 X60.7884 Y16.2723 
G01 X60.8107 Y16.2500 
G01 X69.0739 Y16.2500 
G01 X69.2188 Y16.2212 
G01 X69.3553 Y16.1646 
G01 X69.4781 Y16.0826 
G01 X72.4781 Y13.0826 
G01 X72.5238 Y13.0368 
G01 X72.7665 Y12.9984 
G01 X73.0073 Y12.9202 
G01 X73.2328 Y12.8053 
G01 X73.4375 Y12.6565 
G01 X73.6165 Y12.4775 
G01 X73.6600 Y12.4177 
G01 X73.7035 Y12.4775 
G01 X73.8825 Y12.6565 
G01 X74.0872 Y12.8053 
G01 X74.3127 Y12.9202 
G01 X74.5535 Y12.9984 
G01 X74.8034 Y13.0380 
G01 X74.9013 Y13.0380 
G01 X68.6893 Y19.2500 
G01 X64.5739 Y19.2500 
G01 X64.4876 Y19.1637 
G01 X64.3312 Y19.0500 
G00 Z3.0000 
G00 X65.3106 Y14.7500 
G01 Z-0.1500 F300.00 
G01 X67.0446 Y13.0160 F300.00 
G01 X67.1834 Y13.0380 
G01 X67.4366 Y13.0380 
G01 X67.6865 Y12.9984 
G01 X67.9273 Y12.9202 
G01 X68.1528 Y12.8053 
G01 X68.3575 Y12.6565 
G01 X68.5365 Y12.4775 
G01 X68.5800 Y12.4177 
G01 X68.6235 Y12.4775 
G01 X68.8025 Y12.6565 
G01 X69.0072 Y12.8053 
G01 X69.2327 Y12.9202 
G01 X69.4735 Y12.9984 
G01 X69.7234 Y13.0380 
G01 X69.9766 Y13.0380 
G01 X70.2265 Y12.9984 
G01 X70.4673 Y12.9202 
G01 X70.5731 Y12.8663 
G01 X68.6893 Y14.7500 
G01 X65.3106 Y14.7500 
G00 Z3.0000 
G00 X64.9022 Y13.0371 
G01 Z-0.1500 F300.00 
G01 X64.1893 Y13.7500 F300.00 
G01 X59.9261 Y13.7500 
G01 X59.7812 Y13.7788 
G01 X59.6447 Y13.8354 
G01 X59.5219 Y13.9174 
G01 X57.5219 Y15.9174 
G01 X57.4174 Y16.0219 
G01 X57.3354 Y16.1447 
G01 X57.2788 Y16.2812 
G01 X57.2500 Y16.4261 
G01 X57.2500 Y18.1881 
G01 X56.6039 Y17.5420 
G01 X55.7500 Y17.5420 
G01 X55.7500 Y12.2243 
G01 X55.7747 Y12.2728 
G01 X55.9235 Y12.4775 
G01 X56.1025 Y12.6565 
G01 X56.3072 Y12.8053 
G01 X56.5327 Y12.9202 
G01 X56.7735 Y12.9984 
G01 X57.0234 Y13.0380 
G01 X57.2766 Y13.0380 
G01 X57.5265 Y12.9984 
G01 X57.7673 Y12.9202 
G01 X57.9928 Y12.8053 
G01 X58.1975 Y12.6565 
G01 X58.3765 Y12.4775 
G01 X58.4200 Y12.4177 
G01 X58.4635 Y12.4775 
G01 X58.6425 Y12.6565 
G01 X58.8472 Y12.8053 
G01 X59.0727 Y12.9202 
G01 X59.3135 Y12.9984 
G01 X59.5634 Y13.0380 
G01 X59.8166 Y13.0380 
G01 X60.0665 Y12.9984 
G01 X60.3073 Y12.9202 
G01 X60.5328 Y12.8053 
G01 X60.7375 Y12.6565 
G01 X60.9165 Y12.4775 
G01 X60.9600 Y12.4177 
G01 X61.0035 Y12.4775 
G01 X61.1825 Y12.6565 
G01 X61.3872 Y12.8053 
G01 X61.6127 Y12.9202 
G01 X61.8535 Y12.9984 
G01 X62.1034 Y13.0380 
G01 X62.3566 Y13.0380 
G01 X62.6065 Y12.9984 
G01 X62.8473 Y12.9202 
G01 X63.0728 Y12.8053 
G01 X63.2775 Y12.6565 
G01 X63.4565 Y12.4775 
G01 X63.5000 Y12.4177 
G01 X63.5435 Y12.4775 
G01 X63.7225 Y12.6565 
G01 X63.9272 Y12.8053 
G01 X64.1527 Y12.9202 
G01 X64.3935 Y12.9984 
G01 X64.6434 Y13.0380 
G01 X64.8966 Y13.0380 
G01 X64.9022 Y13.0371 
G00 Z3.0000 
G00 X64.8966 Y9.8220 
G01 Z-0.1500 F300.00 
G01 X64.6434 Y9.8220 F300.00 
G01 X64.3935 Y9.8616 
G01 X64.1527 Y9.9398 
G01 X63.9272 Y10.0547 
G01 X63.7225 Y10.2035 
G01 X63.5435 Y10.3825 
G01 X63.5000 Y10.4423 
G01 X63.4565 Y10.3825 
G01 X63.2775 Y10.2035 
G01 X63.0728 Y10.0547 
G01 X62.8473 Y9.9398 
G01 X62.6065 Y9.8616 
G01 X62.3566 Y9.8220 
G01 X62.1034 Y9.8220 
G01 X61.8535 Y9.8616 
G01 X61.6127 Y9.9398 
G01 X61.3872 Y10.0547 
G01 X61.1825 Y10.2035 
G01 X61.0035 Y10.3825 
G01 X60.9600 Y10.4423 
G01 X60.9165 Y10.3825 
G01 X60.7375 Y10.2035 
G01 X60.5328 Y10.0547 
G01 X60.3073 Y9.9398 
G01 X60.0665 Y9.8616 
G01 X59.8166 Y9.8220 
G01 X59.5634 Y9.8220 
G01 X59.3135 Y9.8616 
G01 X59.1440 Y9.9167 
G01 X59.3107 Y9.7500 
G01 X64.0739 Y9.7500 
G01 X64.2188 Y9.7212 
G01 X64.3553 Y9.6646 
G01 X64.4781 Y9.5826 
G01 X64.5826 Y9.4781 
G01 X65.6740 Y8.3866 
G01 X65.7739 Y8.4741 
G01 X65.9353 Y8.5757 
G01 X66.1105 Y8.6508 
G01 X66.2953 Y8.6976 
G01 X66.4852 Y8.7149 
G01 X66.6437 Y8.7043 
G01 X67.4174 Y9.4781 
G01 X67.5219 Y9.5826 
G01 X67.6447 Y9.6646 
G01 X67.7812 Y9.7212 
G01 X67.9261 Y9.7500 
G01 X72.6893 Y9.7500 
G01 X72.8175 Y9.8781 
G01 X72.7665 Y9.8616 
G01 X72.5166 Y9.8220 
G01 X72.2634 Y9.8220 
G01 X72.0135 Y9.8616 
G01 X71.7727 Y9.9398 
G01 X71.5472 Y10.0547 
G01 X71.3425 Y10.2035 
G01 X71.1635 Y10.3825 
G01 X71.1200 Y10.4423 
G01 X71.0765 Y10.3825 
G01 X70.8975 Y10.2035 
G01 X70.6928 Y10.0547 
G01 X70.4673 Y9.9398 
G01 X70.2265 Y9.8616 
G01 X69.9766 Y9.8220 
G01 X69.7234 Y9.8220 
G01 X69.4735 Y9.8616 
G01 X69.2327 Y9.9398 
G01 X69.0072 Y10.0547 
G01 X68.8025 Y10.2035 
G01 X68.6235 Y10.3825 
G01 X68.5800 Y10.4423 
G01 X68.5365 Y10.3825 
G01 X68.3575 Y10.2035 
G01 X68.1528 Y10.0547 
G01 X67.9273 Y9.9398 
G01 X67.6865 Y9.8616 
G01 X67.4366 Y9.8220 
G01 X67.1834 Y9.8220 
G01 X66.9335 Y9.8616 
G01 X66.6927 Y9.9398 
G01 X66.4672 Y10.0547 
G01 X66.2625 Y10.2035 
G01 X66.0835 Y10.3825 
G01 X66.0400 Y10.4423 
G01 X65.9965 Y10.3825 
G01 X65.8175 Y10.2035 
G01 X65.6128 Y10.0547 
G01 X65.3873 Y9.9398 
G01 X65.1465 Y9.8616 
G01 X64.8966 Y9.8220 
G00 Z3.0000 
G00 X63.6893 Y8.2500 
G01 Z-0.1500 F300.00 
G01 X58.9261 Y8.2500 F300.00 
G01 X58.7812 Y8.2788 
G01 X58.6447 Y8.3354 
G01 X58.5219 Y8.4174 
G01 X57.1173 Y9.8220 
G01 X57.0234 Y9.8220 
G01 X56.7735 Y9.8616 
G01 X56.6632 Y9.8974 
G01 X58.5826 Y7.9781 
G01 X58.6018 Y7.9492 
G01 X58.7965 Y7.9184 
G01 X59.0373 Y7.8402 
G01 X59.2628 Y7.7253 
G01 X59.4675 Y7.5765 
G01 X59.6465 Y7.3975 
G01 X59.6900 Y7.3377 
G01 X59.7335 Y7.3975 
G01 X59.9125 Y7.5765 
G01 X60.1172 Y7.7253 
G01 X60.3427 Y7.8402 
G01 X60.5835 Y7.9184 
G01 X60.8334 Y7.9580 
G01 X61.0866 Y7.9580 
G01 X61.3365 Y7.9184 
G01 X61.5773 Y7.8402 
G01 X61.8028 Y7.7253 
G01 X62.0075 Y7.5765 
G01 X62.1865 Y7.3975 
G01 X62.2300 Y7.3377 
G01 X62.2735 Y7.3975 
G01 X62.4525 Y7.5765 
G01 X62.6572 Y7.7253 
G01 X62.8827 Y7.8402 
G01 X63.1235 Y7.9184 
G01 X63.3734 Y7.9580 
G01 X63.6266 Y7.9580 
G01 X63.8765 Y7.9184 
G01 X64.0904 Y7.8489 
G01 X63.6893 Y8.2500 
G00 Z3.0000 
G00 X63.6877 Y4.7517 
G01 Z-0.1500 F300.00 
G01 X63.6266 Y4.7420 F300.00 
G01 X63.3734 Y4.7420 
G01 X63.1235 Y4.7816 
G01 X62.8827 Y4.8598 
G01 X62.6572 Y4.9747 
G01 X62.4525 Y5.1235 
G01 X62.2735 Y5.3025 
G01 X62.2300 Y5.3623 
G01 X62.1865 Y5.3025 
G01 X62.0075 Y5.1235 
G01 X61.8028 Y4.9747 
G01 X61.5773 Y4.8598 
G01 X61.3365 Y4.7816 
G01 X61.0866 Y4.7420 
G01 X60.8334 Y4.7420 
G01 X60.8069 Y4.7462 
G01 X59.8107 Y3.7500 
G01 X64.6893 Y3.7500 
G01 X63.6877 Y4.7517 
G00 Z3.0000 
G00 X65.8008 Y4.7598 
G01 Z-0.1500 F300.00 
G01 X65.8107 Y4.7500 F300.00 
G01 X65.8630 Y4.7500 
G01 X65.8008 Y4.7598 
G00 Z3.0000 
G00 X66.2170 Y4.7500 
G01 Z-0.1500 F300.00 
G01 X68.4030 Y4.7500 F300.00 
G01 X68.2035 Y4.7816 
G01 X67.9627 Y4.8598 
G01 X67.7372 Y4.9747 
G01 X67.5325 Y5.1235 
G01 X67.3535 Y5.3025 
G01 X67.3100 Y5.3623 
G01 X67.2665 Y5.3025 
G01 X67.0875 Y5.1235 
G01 X66.8828 Y4.9747 
G01 X66.6573 Y4.8598 
G01 X66.4165 Y4.7816 
G01 X66.2170 Y4.7500 
G00 Z3.0000 
G00 X68.7570 Y4.7500 
G01 Z-0.1500 F300.00 
G01 X70.9430 Y4.7500 F300.00 
G01 X70.7435 Y4.7816 
G01 X70.5027 Y4.8598 
G01 X70.2772 Y4.9747 
G01 X70.0725 Y5.1235 
G01 X69.8935 Y5.3025 
G01 X69.8500 Y5.3623 
G01 X69.8065 Y5.3025 
G01 X69.6275 Y5.1235 
G01 X69.4228 Y4.9747 
G01 X69.1973 Y4.8598 
G01 X68.9565 Y4.7816 
G01 X68.7570 Y4.7500 
G00 Z3.0000 
G00 X71.2970 Y4.7500 
G01 Z-0.1500 F300.00 
G01 X73.4830 Y4.7500 F300.00 
G01 X73.2835 Y4.7816 
G01 X73.0427 Y4.8598 
G01 X72.8172 Y4.9747 
G01 X72.6125 Y5.1235 
G01 X72.4335 Y5.3025 
G01 X72.3900 Y5.3623 
G01 X72.3465 Y5.3025 
G01 X72.1675 Y5.1235 
G01 X71.9628 Y4.9747 
G01 X71.7373 Y4.8598 
G01 X71.4965 Y4.7816 
G01 X71.2970 Y4.7500 
G00 Z3.0000 
G00 X73.8370 Y4.7500 
G01 Z-0.1500 F300.00 
G01 X74.1893 Y4.7500 F300.00 
G01 X74.3219 Y4.8826 
G01 X74.2773 Y4.8598 
G01 X74.0365 Y4.7816 
G01 X73.8370 Y4.7500 
G00 Z3.0000 
G00 X75.1274 Y5.6881 
G01 Z-0.1500 F300.00 
G01 X75.9174 Y6.4781 F300.00 
G01 X76.0219 Y6.5826 
G01 X78.2500 Y8.8107 
G01 X78.2500 Y12.6881 
G01 X77.7500 Y12.1881 
G01 X77.7500 Y9.4261 
G01 X77.7212 Y9.2812 
G01 X77.6646 Y9.1447 
G01 X77.5826 Y9.0219 
G01 X75.2364 Y6.6758 
G01 X75.2680 Y6.4766 
G01 X75.2680 Y6.2234 
G01 X75.2284 Y5.9735 
G01 X75.1502 Y5.7327 
G01 X75.1274 Y5.6881 
G00 Z3.0000 
G00 X76.7500 Y5.1893 
G01 Z-0.1500 F300.00 
G01 X75.3106 Y3.7500 F300.00 
G01 X77.0739 Y3.7500 
G01 X77.2188 Y3.7212 
G01 X77.3553 Y3.6646 
G01 X77.4781 Y3.5826 
G01 X77.5420 Y3.5187 
G01 X77.5420 Y4.3973 
G01 X76.7500 Y5.1893 
G00 Z3.0000 
G00 X75.1881 Y2.2500 
G01 Z-0.1500 F300.00 
G01 X57.8107 Y2.2500 F300.00 
G01 X58.3107 Y1.7500 
G01 X74.6881 Y1.7500 
G01 X75.1881 Y2.2500 
G00 Z3.0000 
G00 X74.2788 Y7.8394 
G01 Z-0.1500 F300.00 
G01 X76.2500 Y9.8107 F300.00 
G01 X76.2500 Y10.5111 
G01 X76.1565 Y10.3825 
G01 X75.9775 Y10.2035 
G01 X75.7728 Y10.0547 
G01 X75.5473 Y9.9398 
G01 X75.3065 Y9.8616 
G01 X75.0566 Y9.8220 
G01 X74.8827 Y9.8220 
G01 X73.4781 Y8.4174 
G01 X73.3553 Y8.3354 
G01 X73.2188 Y8.2788 
G01 X73.0739 Y8.2500 
G01 X68.3107 Y8.2500 
G01 X67.8365 Y7.7759 
G01 X67.9627 Y7.8402 
G01 X68.2035 Y7.9184 
G01 X68.4534 Y7.9580 
G01 X68.7066 Y7.9580 
G01 X68.9565 Y7.9184 
G01 X69.1973 Y7.8402 
G01 X69.4228 Y7.7253 
G01 X69.6275 Y7.5765 
G01 X69.8065 Y7.3975 
G01 X69.8500 Y7.3377 
G01 X69.8935 Y7.3975 
G01 X70.0725 Y7.5765 
G01 X70.2772 Y7.7253 
G01 X70.5027 Y7.8402 
G01 X70.7435 Y7.9184 
G01 X70.9934 Y7.9580 
G01 X71.2466 Y7.9580 
G01 X71.4965 Y7.9184 
G01 X71.7373 Y7.8402 
G01 X71.9628 Y7.7253 
G01 X72.1675 Y7.5765 
G01 X72.3465 Y7.3975 
G01 X72.3900 Y7.3377 
G01 X72.4335 Y7.3975 
G01 X72.6125 Y7.5765 
G01 X72.8172 Y7.7253 
G01 X73.0427 Y7.8402 
G01 X73.2835 Y7.9184 
G01 X73.5334 Y7.9580 
G01 X73.7866 Y7.9580 
G01 X74.0365 Y7.9184 
G01 X74.2773 Y7.8402 
G00 Z3.0000 
G00 X87.9786 Y4.2488 
G01 Z-0.1500 F300.00 
G01 X88.1587 Y4.3797 F300.00 
G01 X88.3571 Y4.4808 
G01 X88.5688 Y4.5496 
G01 X88.7887 Y4.5844 
G01 X89.0113 Y4.5844 
G01 X89.2312 Y4.5496 
G01 X89.4429 Y4.4808 
G01 X89.6413 Y4.3797 
G01 X89.8214 Y4.2488 
G01 X89.9788 Y4.0914 
G01 X90.1097 Y3.9113 
G01 X90.2108 Y3.7129 
G01 X90.2796 Y3.5012 
G01 X90.3144 Y3.2813 
G01 X90.3144 Y3.0587 
G01 X90.2796 Y2.8388 
G01 X90.2108 Y2.6271 
G01 X90.1097 Y2.4287 
G01 X89.9788 Y2.2486 
G01 X89.8214 Y2.0912 
G01 X89.6413 Y1.9603 
G01 X89.5230 Y1.9000 
G01 X89.6413 Y1.8397 
G01 X89.8214 Y1.7088 
G01 X89.9788 Y1.5514 
G01 X90.1097 Y1.3713 
G01 X90.2108 Y1.1729 
G01 X90.2796 Y0.9612 
G01 X90.3144 Y0.7413 
G01 X90.3144 Y0.5187 
G01 X90.2796 Y0.2988 
G01 X90.2108 Y0.0871 
G01 X90.1097 Y-0.1113 
G01 X89.9788 Y-0.2914 
G01 X89.8214 Y-0.4488 
G01 X89.6413 Y-0.5797 
G01 X89.4429 Y-0.6808 
G01 X89.2312 Y-0.7496 
G01 X89.0113 Y-0.7844 
G01 X88.7887 Y-0.7844 
G01 X88.5688 Y-0.7496 
G01 X88.3571 Y-0.6808 
G01 X88.1587 Y-0.5797 
G01 X87.9786 Y-0.4488 
G01 X87.8212 Y-0.2914 
G01 X87.6903 Y-0.1113 
G01 X87.5892 Y0.0871 
G01 X87.5204 Y0.2988 
G01 X87.4856 Y0.5187 
G01 X87.4856 Y0.7413 
G01 X87.5204 Y0.9612 
G01 X87.5892 Y1.1729 
G01 X87.6903 Y1.3713 
G01 X87.8212 Y1.5514 
G01 X87.9786 Y1.7088 
G01 X88.1587 Y1.8397 
G01 X88.2770 Y1.9000 
G01 X88.1587 Y1.9603 
G01 X87.9786 Y2.0912 
G01 X87.8212 Y2.2486 
G01 X87.6903 Y2.4287 
G01 X87.5892 Y2.6271 
G01 X87.5204 Y2.8388 
G01 X87.4856 Y3.0587 
G01 X87.4856 Y3.2813 
G01 X87.5204 Y3.5012 
G01 X87.5892 Y3.7129 
G01 X87.6903 Y3.9113 
G01 X87.8212 Y4.0914 
G01 X87.9786 Y4.2488 
G00 Z3.0000 
G00 X94.7500 Y24.3119 
G01 Z-0.1500 F300.00 
G01 X95.0653 Y24.6272 F300.00 
G01 X94.9188 Y24.6504 
G01 X94.7620 Y24.7014 
G01 X94.7500 Y24.6893 
G01 X94.7500 Y24.3119 
G00 Z3.0000 
G00 X96.1783 Y24.9580 
G01 Z-0.1500 F300.00 
G01 X96.2500 Y24.9580 F300.00 
G01 X96.2500 Y25.0297 
G01 X96.1783 Y24.9580 
G00 Z3.0000 
G00 X96.2500 Y27.0303 
G01 Z-0.1500 F300.00 
G01 X96.2500 Y27.0739 F300.00 
G01 X96.2788 Y27.2188 
G01 X96.3354 Y27.3553 
G01 X96.4174 Y27.4781 
G01 X96.5219 Y27.5826 
G01 X97.7500 Y28.8107 
G01 X97.7500 Y38.0285 
G01 X97.7297 Y37.9887 
G01 X97.5988 Y37.8086 
G01 X97.4414 Y37.6512 
G01 X97.2613 Y37.5203 
G01 X97.0629 Y37.4192 
G01 X96.8512 Y37.3504 
G01 X96.6313 Y37.3156 
G01 X96.4087 Y37.3156 
G01 X96.1888 Y37.3504 
G01 X95.9771 Y37.4192 
G01 X95.7787 Y37.5203 
G01 X95.5986 Y37.6512 
G01 X95.4412 Y37.8086 
G01 X95.3103 Y37.9887 
G01 X95.2092 Y38.1871 
G01 X95.1404 Y38.3988 
G01 X95.1056 Y38.6187 
G01 X95.1056 Y38.8413 
G01 X95.1404 Y39.0612 
G01 X95.2092 Y39.2729 
G01 X95.3103 Y39.4713 
G01 X95.4412 Y39.6514 
G01 X95.5986 Y39.8088 
G01 X95.7787 Y39.9397 
G01 X95.8970 Y40.0000 
G01 X95.7787 Y40.0603 
G01 X95.5986 Y40.1912 
G01 X95.4412 Y40.3486 
G01 X95.3103 Y40.5287 
G01 X95.2092 Y40.7271 
G01 X95.1404 Y40.9388 
G01 X95.1056 Y41.1587 
G01 X95.1056 Y41.3813 
G01 X95.1404 Y41.6012 
G01 X95.2092 Y41.8129 
G01 X95.3103 Y42.0113 
G01 X95.4412 Y42.1914 
G01 X95.5986 Y42.3488 
G01 X95.7787 Y42.4797 
G01 X95.9771 Y42.5808 
G01 X96.1888 Y42.6496 
G01 X96.2500 Y42.6593 
G01 X96.2500 Y50.4297 
G01 X96.1714 Y50.3512 
G01 X95.9913 Y50.2203 
G01 X95.7929 Y50.1192 
G01 X95.5812 Y50.0504 
G01 X95.3613 Y50.0156 
G01 X95.1387 Y50.0156 
G01 X94.9188 Y50.0504 
G01 X94.7071 Y50.1192 
G01 X94.5087 Y50.2203 
G01 X94.3286 Y50.3512 
G01 X94.1712 Y50.5086 
G01 X94.0403 Y50.6887 
G01 X93.9392 Y50.8871 
G01 X93.8704 Y51.0988 
G01 X93.8356 Y51.3187 
G01 X93.8356 Y51.5413 
G01 X93.8704 Y51.7612 
G01 X93.9392 Y51.9729 
G01 X94.0403 Y52.1713 
G01 X94.1712 Y52.3514 
G01 X94.3286 Y52.5088 
G01 X94.5087 Y52.6397 
G01 X94.6270 Y52.7000 
G01 X94.5087 Y52.7603 
G01 X94.3286 Y52.8912 
G01 X94.1712 Y53.0486 
G01 X94.0403 Y53.2287 
G01 X94.0294 Y53.2500 
G01 X92.7500 Y53.2500 
G01 X92.7500 Y50.4261 
G01 X92.7216 Y50.2836 
G01 X92.8961 Y50.4580 
G01 X94.1039 Y50.4580 
G01 X94.9580 Y49.6039 
G01 X94.9580 Y48.3961 
G01 X94.2500 Y47.6881 
G01 X94.2500 Y29.5703 
G01 X94.3286 Y29.6488 
G01 X94.5087 Y29.7797 
