(/Applications/EAGLE-7.4.0/ulp/pcb-gcode.ulp)
(Copyright 2005 - 2012 by John Johnson)
(See readme.txt for licensing terms.)
(This file generated from the board:)
(.../line following robot PCB/line-following-car.brd)
(Current profile is .../EAGLE-7.4.0/ulp/profiles/generic.pp  )
(This file generated 15年12月16日 上午10:10)
(Settings from pcb-machine.h)
(spindle on time = 0.0000)
(spindle speed = 35000.0000)
(tool change at 0.0000 0.0000 25.4000 )
(feed rate xy = F0.00  )
(feed rate z  = F1200.00 )
(Z Axis Settings)
(  High     Up        Down     Drill)
(8.0000 	3.0000 	-0.1500 	-1.9000 )
(Settings from pcb-defaults.h)
(isolate min = 0.0000)
(isolate max = 0.1000)
(isolate step = 0.2000)
(Generated top drill, bottom outlines, bottom drill, )
(Unit of measure: mm)
( Tool|       Size       |  Min Sub |  Max Sub |   Count )
( T01  0.813mm 0.0320in 0.0000in 0.0000in )
( T02  0.900mm 0.0354in 0.0000in 0.0000in )
( T03  1.016mm 0.0400in 0.0000in 0.0000in )
( T04  1.118mm 0.0440in 0.0000in 0.0000in )
( T05  1.200mm 0.0472in 0.0000in 0.0000in )
( T06  1.397mm 0.0550in 0.0000in 0.0000in )
( T07  2.007mm 0.0790in 0.0000in 0.0000in )
( T08  3.000mm 0.1181in 0.0000in 0.0000in )
(Metric Mode)
G21
(Absolute Coordinates)
G90
S35000
G00 Z8.0000 
G00 X0.0000 Y0.0000 
M03
G04 P0.000000
M05
G00 Z25.4000 
M06 T01  ; 0.8128 
G01 Z0.0000 F1200.00 
M06 
G00 Z3.0000 
M03
G04 P0.000000
G00 X5.0800 Y13.9700 
G01 Z-1.9000 F1200.00 
G00 Z3.0000 
G00 X7.6200 Y13.9700 
G01 Z-1.9000 F1200.00 
G00 Z3.0000 
G00 X10.1600 Y13.9700 
G01 Z-1.9000 F1200.00 
G00 Z3.0000 
G00 X15.2400 Y17.7800 
G01 Z-1.9000 F1200.00 
G00 Z3.0000 
G00 X15.2400 Y20.3200 
G01 Z-1.9000 F1200.00 
G00 Z3.0000 
G00 X15.2400 Y22.8600 
G01 Z-1.9000 F1200.00 
G00 Z3.0000 
G00 X10.1600 Y21.5900 
G01 Z-1.9000 F1200.00 
G00 Z3.0000 
G00 X7.6200 Y21.5900 
G01 Z-1.9000 F1200.00 
G00 Z3.0000 
G00 X5.0800 Y21.5900 
G01 Z-1.9000 F1200.00 
G00 Z3.0000 
G00 X22.8600 Y20.3200 
G01 Z-1.9000 F1200.00 
G00 Z3.0000 
G00 X22.8600 Y17.7800 
G01 Z-1.9000 F1200.00 
G00 Z3.0000 
G00 X22.8600 Y22.8600 
G01 Z-1.9000 F1200.00 
G00 Z3.0000 
G00 X48.2600 Y27.9400 
G01 Z-1.9000 F1200.00 
G00 Z3.0000 
G00 X50.8000 Y27.9400 
G01 Z-1.9000 F1200.00 
G00 Z3.0000 
G00 X50.8000 Y30.4800 
G01 Z-1.9000 F1200.00 
G00 Z3.0000 
G00 X48.2600 Y33.0200 
G01 Z-1.9000 F1200.00 
G00 Z3.0000 
G00 X50.8000 Y35.5600 
G01 Z-1.9000 F1200.00 
G00 Z3.0000 
G00 X54.6100 Y33.0200 
G01 Z-1.9000 F1200.00 
G00 Z3.0000 
G00 X57.1500 Y35.5600 
G01 Z-1.9000 F1200.00 
G00 Z3.0000 
G00 X57.1500 Y30.4800 
G01 Z-1.9000 F1200.00 
G00 Z3.0000 
G00 X57.1500 Y27.9400 
G01 Z-1.9000 F1200.00 
G00 Z3.0000 
G00 X54.6100 Y27.9400 
G01 Z-1.9000 F1200.00 
G00 Z3.0000 
G00 X57.1500 Y25.4000 
G01 Z-1.9000 F1200.00 
G00 Z3.0000 
G00 X57.1500 Y22.8600 
G01 Z-1.9000 F1200.00 
G00 Z3.0000 
G00 X50.8000 Y22.8600 
G01 Z-1.9000 F1200.00 
G00 Z3.0000 
G00 X50.8000 Y25.4000 
G01 Z-1.9000 F1200.00 
G00 Z3.0000 
G00 X87.6300 Y15.8700 
G01 Z-1.9000 F1200.00 
G00 Z3.0000 
G00 X87.6300 Y13.3300 
G01 Z-1.9000 F1200.00 
G00 Z3.0000 
G00 X92.7100 Y13.3300 
G01 Z-1.9000 F1200.00 
G00 Z3.0000 
G00 X92.7100 Y15.8700 
G01 Z-1.9000 F1200.00 
G00 Z3.0000 
G00 X90.1700 Y26.0300 
G01 Z-1.9000 F1200.00 
G00 Z3.0000 
G00 X90.1700 Y28.5700 
G01 Z-1.9000 F1200.00 
G00 Z3.0000 
G00 X95.2500 Y28.5700 
G01 Z-1.9000 F1200.00 
G00 Z3.0000 
G00 X95.2500 Y26.0300 
G01 Z-1.9000 F1200.00 
G00 Z3.0000 
G00 X96.5200 Y38.7300 
G01 Z-1.9000 F1200.00 
G00 Z3.0000 
G00 X96.5200 Y41.2700 
G01 Z-1.9000 F1200.00 
G00 Z3.0000 
G00 X91.4400 Y41.2700 
G01 Z-1.9000 F1200.00 
G00 Z3.0000 
G00 X91.4400 Y38.7300 
G01 Z-1.9000 F1200.00 
G00 Z3.0000 
G00 X90.1700 Y51.4300 
G01 Z-1.9000 F1200.00 
G00 Z3.0000 
G00 X90.1700 Y53.9700 
G01 Z-1.9000 F1200.00 
G00 Z3.0000 
G00 X95.2500 Y53.9700 
G01 Z-1.9000 F1200.00 
G00 Z3.0000 
G00 X95.2500 Y51.4300 
G01 Z-1.9000 F1200.00 
G00 Z3.0000 
G00 X92.7100 Y64.1300 
G01 Z-1.9000 F1200.00 
G00 Z3.0000 
G00 X92.7100 Y66.6700 
G01 Z-1.9000 F1200.00 
G00 Z3.0000 
G00 X87.6300 Y66.6700 
G01 Z-1.9000 F1200.00 
G00 Z3.0000 
G00 X87.6300 Y64.1300 
G01 Z-1.9000 F1200.00 
G00 Z3.0000 
G00 X81.2800 Y64.7700 
G01 Z-1.9000 F1200.00 
G00 Z3.0000 
G00 X81.2800 Y69.8500 
G01 Z-1.9000 F1200.00 
G00 Z3.0000 
G00 X75.9460 Y69.8500 
G01 Z-1.9000 F1200.00 
G00 Z3.0000 
G00 X73.9140 Y69.8500 
G01 Z-1.9000 F1200.00 
G00 Z3.0000 
G00 X83.8200 Y76.8300 
G01 Z-1.9000 F1200.00 
G00 Z3.0000 
G00 X83.8200 Y79.3700 
G01 Z-1.9000 F1200.00 
G00 Z3.0000 
G00 X88.9000 Y79.3700 
G01 Z-1.9000 F1200.00 
G00 Z3.0000 
G00 X88.9000 Y76.8300 
G01 Z-1.9000 F1200.00 
G00 Z3.0000 
G00 X88.9000 Y3.1700 
G01 Z-1.9000 F1200.00 
G00 Z3.0000 
G00 X88.9000 Y0.6300 
G01 Z-1.9000 F1200.00 
G00 Z3.0000 
G00 X83.8200 Y0.6300 
G01 Z-1.9000 F1200.00 
G00 Z3.0000 
G00 X83.8200 Y3.1700 
G01 Z-1.9000 F1200.00 
G00 Z3.0000 
M05
G00 Z25.4000 
G00 X0.0000 Y0.0000 
M06 T02  ; 0.9000 
G01 Z0.0000 F1200.00 
M06 
G00 Z3.0000 
M03
G04 P0.000000
G00 X31.5000 Y6.0000 
G01 Z-1.9000 F1200.00 
G00 Z3.0000 
G00 X41.0000 Y18.0000 
G01 Z-1.9000 F1200.00 
G00 Z3.0000 
G00 X45.5000 Y16.5000 
G01 Z-1.9000 F1200.00 
G00 Z3.0000 
G00 X48.0000 Y22.0000 
G01 Z-1.9000 F1200.00 
G00 Z3.0000 
G00 X56.0000 Y19.0000 
G01 Z-1.9000 F1200.00 
G00 Z3.0000 
G00 X68.5000 Y22.0000 
G01 Z-1.9000 F1200.00 
G00 Z3.0000 
G00 X77.0000 Y13.5000 
G01 Z-1.9000 F1200.00 
G00 Z3.0000 
G00 X79.0000 Y4.0000 
G01 Z-1.9000 F1200.00 
G00 Z3.0000 
G00 X76.0000 Y1.0000 
G01 Z-1.9000 F1200.00 
G00 Z3.0000 
G00 X96.0000 Y23.5000 
G01 Z-1.9000 F1200.00 
G00 Z3.0000 
G00 X89.5000 Y33.5000 
G01 Z-1.9000 F1200.00 
G00 Z3.0000 
G00 X93.5000 Y49.0000 
G01 Z-1.9000 F1200.00 
G00 Z3.0000 
G00 X87.5000 Y56.0000 
G01 Z-1.9000 F1200.00 
G00 Z3.0000 
G00 X78.0000 Y79.5000 
G01 Z-1.9000 F1200.00 
G00 Z3.0000 
G00 X55.5000 Y53.5000 
G01 Z-1.9000 F1200.00 
G00 Z3.0000 
G00 X55.0000 Y48.5000 
G01 Z-1.9000 F1200.00 
G00 Z3.0000 
G00 X49.5000 Y51.0000 
G01 Z-1.9000 F1200.00 
G00 Z3.0000 
G00 X36.0000 Y37.5000 
G01 Z-1.9000 F1200.00 
G00 Z3.0000 
G00 X35.0000 Y30.5000 
G01 Z-1.9000 F1200.00 
G00 Z3.0000 
G00 X31.5000 Y27.5000 
G01 Z-1.9000 F1200.00 
G00 Z3.0000 
M05
G00 Z25.4000 
G00 X0.0000 Y0.0000 
M06 T03  ; 1.0160 
G01 Z0.0000 F1200.00 
M06 
G00 Z3.0000 
M03
G04 P0.000000
G00 X6.9088 Y28.2194 
G01 Z-1.9000 F1200.00 
G00 Z3.0000 
G00 X6.9088 Y32.7406 
G01 Z-1.9000 F1200.00 
G00 Z3.0000 
G00 X6.9088 Y38.3794 
G01 Z-1.9000 F1200.00 
G00 Z3.0000 
G00 X6.9088 Y42.9006 
G01 Z-1.9000 F1200.00 
G00 Z3.0000 
G00 X6.9088 Y48.5394 
G01 Z-1.9000 F1200.00 
G00 Z3.0000 
G00 X6.9088 Y53.0606 
G01 Z-1.9000 F1200.00 
G00 Z3.0000 
G00 X13.4112 Y53.0606 
G01 Z-1.9000 F1200.00 
G00 Z3.0000 
G00 X13.4112 Y48.5394 
G01 Z-1.9000 F1200.00 
G00 Z3.0000 
G00 X13.4112 Y42.9006 
G01 Z-1.9000 F1200.00 
G00 Z3.0000 
G00 X13.4112 Y38.3794 
G01 Z-1.9000 F1200.00 
G00 Z3.0000 
G00 X13.4112 Y32.7406 
G01 Z-1.9000 F1200.00 
G00 Z3.0000 
G00 X13.4112 Y28.2194 
G01 Z-1.9000 F1200.00 
G00 Z3.0000 
G00 X27.9400 Y27.9400 
G01 Z-1.9000 F1200.00 
G00 Z3.0000 
G00 X27.9400 Y30.4800 
G01 Z-1.9000 F1200.00 
G00 Z3.0000 
G00 X27.9400 Y33.0200 
G01 Z-1.9000 F1200.00 
G00 Z3.0000 
G00 X27.9400 Y35.5600 
G01 Z-1.9000 F1200.00 
G00 Z3.0000 
G00 X27.9400 Y38.1000 
G01 Z-1.9000 F1200.00 
G00 Z3.0000 
G00 X27.9400 Y40.6400 
G01 Z-1.9000 F1200.00 
G00 Z3.0000 
G00 X27.9400 Y43.1800 
G01 Z-1.9000 F1200.00 
G00 Z3.0000 
G00 X27.9400 Y45.7200 
G01 Z-1.9000 F1200.00 
G00 Z3.0000 
G00 X27.9400 Y48.2600 
G01 Z-1.9000 F1200.00 
G00 Z3.0000 
G00 X27.9400 Y50.8000 
G01 Z-1.9000 F1200.00 
G00 Z3.0000 
G00 X27.9400 Y53.3400 
G01 Z-1.9000 F1200.00 
G00 Z3.0000 
G00 X27.9400 Y55.8800 
G01 Z-1.9000 F1200.00 
G00 Z3.0000 
G00 X38.1000 Y55.8800 
G01 Z-1.9000 F1200.00 
G00 Z3.0000 
G00 X40.6400 Y55.8800 
G01 Z-1.9000 F1200.00 
G00 Z3.0000 
G00 X43.1800 Y55.8800 
G01 Z-1.9000 F1200.00 
G00 Z3.0000 
G00 X43.1800 Y53.3400 
G01 Z-1.9000 F1200.00 
G00 Z3.0000 
G00 X43.1800 Y50.8000 
G01 Z-1.9000 F1200.00 
G00 Z3.0000 
G00 X43.1800 Y48.2600 
G01 Z-1.9000 F1200.00 
G00 Z3.0000 
G00 X43.1800 Y45.7200 
G01 Z-1.9000 F1200.00 
G00 Z3.0000 
G00 X43.1800 Y43.1800 
G01 Z-1.9000 F1200.00 
G00 Z3.0000 
G00 X43.1800 Y40.6400 
G01 Z-1.9000 F1200.00 
G00 Z3.0000 
G00 X43.1800 Y38.1000 
G01 Z-1.9000 F1200.00 
G00 Z3.0000 
G00 X43.1800 Y35.5600 
G01 Z-1.9000 F1200.00 
G00 Z3.0000 
G00 X43.1800 Y33.0200 
G01 Z-1.9000 F1200.00 
G00 Z3.0000 
G00 X43.1800 Y30.4800 
G01 Z-1.9000 F1200.00 
G00 Z3.0000 
G00 X43.1800 Y27.9400 
G01 Z-1.9000 F1200.00 
G00 Z3.0000 
G00 X40.3225 Y36.6713 
G01 Z-1.9000 F1200.00 
G00 Z3.0000 
G00 X40.3225 Y39.2112 
G01 Z-1.9000 F1200.00 
G00 Z3.0000 
G00 X57.1500 Y60.9600 
G01 Z-1.9000 F1200.00 
G00 Z3.0000 
G00 X57.1500 Y63.5000 
G01 Z-1.9000 F1200.00 
G00 Z3.0000 
G00 X59.6900 Y63.5000 
G01 Z-1.9000 F1200.00 
G00 Z3.0000 
G00 X59.6900 Y60.9600 
G01 Z-1.9000 F1200.00 
G00 Z3.0000 
G00 X62.2300 Y60.9600 
G01 Z-1.9000 F1200.00 
G00 Z3.0000 
G00 X62.2300 Y63.5000 
G01 Z-1.9000 F1200.00 
G00 Z3.0000 
G00 X64.7700 Y63.5000 
G01 Z-1.9000 F1200.00 
G00 Z3.0000 
G00 X64.7700 Y60.9600 
G01 Z-1.9000 F1200.00 
G00 Z3.0000 
G00 X64.7700 Y66.0400 
G01 Z-1.9000 F1200.00 
G00 Z3.0000 
G00 X62.2300 Y66.0400 
G01 Z-1.9000 F1200.00 
G00 Z3.0000 
G00 X59.6900 Y66.0400 
G01 Z-1.9000 F1200.00 
G00 Z3.0000 
G00 X57.1500 Y66.0400 
G01 Z-1.9000 F1200.00 
G00 Z3.0000 
G00 X60.9600 Y20.3200 
G01 Z-1.9000 F1200.00 
G00 Z3.0000 
G00 X60.9600 Y17.7800 
G01 Z-1.9000 F1200.00 
G00 Z3.0000 
G00 X63.5000 Y17.7800 
G01 Z-1.9000 F1200.00 
G00 Z3.0000 
G00 X63.5000 Y20.3200 
G01 Z-1.9000 F1200.00 
G00 Z3.0000 
M05
G00 Z25.4000 
G00 X0.0000 Y0.0000 
M06 T04  ; 1.1176 
G01 Z0.0000 F1200.00 
M06 
G00 Z3.0000 
M03
G04 P0.000000
G00 X27.9400 Y12.7000 
G01 Z-1.9000 F1200.00 
G00 Z3.0000 
G00 X27.9400 Y15.2400 
G01 Z-1.9000 F1200.00 
G00 Z3.0000 
G00 X38.1000 Y15.2400 
G01 Z-1.9000 F1200.00 
G00 Z3.0000 
G00 X40.6400 Y15.2400 
G01 Z-1.9000 F1200.00 
G00 Z3.0000 
G00 X40.6400 Y12.7000 
G01 Z-1.9000 F1200.00 
G00 Z3.0000 
G00 X38.1000 Y12.7000 
G01 Z-1.9000 F1200.00 
G00 Z3.0000 
G00 X50.8000 Y12.7000 
G01 Z-1.9000 F1200.00 
G00 Z3.0000 
G00 X50.8000 Y15.2400 
G01 Z-1.9000 F1200.00 
G00 Z3.0000 
G00 X50.8000 Y60.9600 
G01 Z-1.9000 F1200.00 
G00 Z3.0000 
G00 X50.8000 Y63.5000 
G01 Z-1.9000 F1200.00 
G00 Z3.0000 
G00 X40.6400 Y63.5000 
G01 Z-1.9000 F1200.00 
G00 Z3.0000 
G00 X38.1000 Y63.5000 
G01 Z-1.9000 F1200.00 
G00 Z3.0000 
G00 X38.1000 Y60.9600 
G01 Z-1.9000 F1200.00 
G00 Z3.0000 
G00 X40.6400 Y60.9600 
G01 Z-1.9000 F1200.00 
G00 Z3.0000 
G00 X27.9400 Y60.9600 
G01 Z-1.9000 F1200.00 
G00 Z3.0000 
G00 X27.9400 Y63.5000 
G01 Z-1.9000 F1200.00 
G00 Z3.0000 
M05
G00 Z25.4000 
G00 X0.0000 Y0.0000 
M06 T05  ; 1.2000 
G01 Z0.0000 F1200.00 
M06 
G00 Z3.0000 
M03
G04 P0.000000
G00 X57.1500 Y11.4300 
G01 Z-1.9000 F1200.00 
G00 Z3.0000 
G00 X59.6900 Y11.4300 
G01 Z-1.9000 F1200.00 
G00 Z3.0000 
G00 X62.2300 Y11.4300 
G01 Z-1.9000 F1200.00 
G00 Z3.0000 
G00 X64.7700 Y11.4300 
G01 Z-1.9000 F1200.00 
G00 Z3.0000 
G00 X67.3100 Y11.4300 
G01 Z-1.9000 F1200.00 
G00 Z3.0000 
G00 X69.8500 Y11.4300 
G01 Z-1.9000 F1200.00 
G00 Z3.0000 
G00 X72.3900 Y11.4300 
G01 Z-1.9000 F1200.00 
G00 Z3.0000 
G00 X74.9300 Y11.4300 
G01 Z-1.9000 F1200.00 
G00 Z3.0000 
G00 X73.6600 Y6.3500 
G01 Z-1.9000 F1200.00 
G00 Z3.0000 
G00 X71.1200 Y6.3500 
G01 Z-1.9000 F1200.00 
G00 Z3.0000 
G00 X68.5800 Y6.3500 
G01 Z-1.9000 F1200.00 
G00 Z3.0000 
G00 X66.0400 Y6.3500 
G01 Z-1.9000 F1200.00 
G00 Z3.0000 
G00 X63.5000 Y6.3500 
G01 Z-1.9000 F1200.00 
G00 Z3.0000 
G00 X60.9600 Y6.3500 
G01 Z-1.9000 F1200.00 
G00 Z3.0000 
G00 X58.4200 Y6.3500 
G01 Z-1.9000 F1200.00 
G00 Z3.0000 
M05
G00 Z25.4000 
G00 X0.0000 Y0.0000 
M06 T06  ; 1.3970 
G01 Z0.0000 F1200.00 
M06 
G00 Z3.0000 
M03
G04 P0.000000
G00 X58.4200 Y76.2000 
G01 Z-1.9000 F1200.00 
G00 Z3.0000 
G00 X63.5000 Y76.2000 
G01 Z-1.9000 F1200.00 
G00 Z3.0000 
M05
G00 Z25.4000 
G00 X0.0000 Y0.0000 
M06 T07  ; 2.0066 
G01 Z0.0000 F1200.00 
M06 
G00 Z3.0000 
M03
G04 P0.000000
G00 X69.6468 Y76.2000 
G01 Z-1.9000 F1200.00 
G00 Z3.0000 
G00 X73.6600 Y76.2000 
G01 Z-1.9000 F1200.00 
G00 Z3.0000 
G00 X77.6732 Y76.2000 
G01 Z-1.9000 F1200.00 
G00 Z3.0000 
M05
G00 Z25.4000 
G00 X0.0000 Y0.0000 
M06 T08  ; 3.0000 
G01 Z0.0000 F1200.00 
M06 
G00 Z3.0000 
M03
G04 P0.000000
G00 X17.7800 Y2.5400 
G01 Z-1.9000 F1200.00 
G00 Z3.0000 
G00 X22.5000 Y10.0000 
G01 Z-1.9000 F1200.00 
G00 Z3.0000 
G00 X22.5000 Y29.0000 
G01 Z-1.9000 F1200.00 
G00 Z3.0000 
G00 X22.5000 Y51.0000 
G01 Z-1.9000 F1200.00 
G00 Z3.0000 
G00 X22.5000 Y70.0000 
G01 Z-1.9000 F1200.00 
G00 Z3.0000 
G00 X17.7800 Y77.5400 
G01 Z-1.9000 F1200.00 
G00 Z3.0000 
G00 X48.7800 Y77.5400 
G01 Z-1.9000 F1200.00 
G00 Z3.0000 
G00 X73.6600 Y60.0000 
G01 Z-1.9000 F1200.00 
G00 Z3.0000 
G00 X73.6600 Y20.0000 
G01 Z-1.9000 F1200.00 
G00 Z3.0000 
G00 X48.7800 Y2.5400 
G01 Z-1.9000 F1200.00 
G00 Z3.0000 
T01 
G00 Z8.0000 
M05
M02
